;FLAVOR:Marlin
;TIME:4737
;Filament used: 1.68945m
;Layer height: 0.2
;MINX:77.789
;MINY:54.366
;MINZ:0.2
;MAXX:115.758
;MAXY:92.338
;MAXZ:86.4
;Generated with Cura_SteamEngine 4.4.1
M140 S60
M105
M190 S60
M104 S205
M105
M109 S205
M82 ;absolute extrusion mode
M201 X500.00 Y500.00 Z100.00 E5000.00 ;Setup machine max acceleration
M203 X500.00 Y500.00 Z10.00 E50.00 ;Setup machine max feedrate
M204 P500.00 R1000.00 T500.00 ;Setup Print/Retract/Travel acceleration
M205 X8.00 Y8.00 Z0.40 E5.00 ;Setup Jerk
M220 S100 ;Reset Feedrate
M221 S100 ;Reset Flowrate

G28 ;Home

G92 E0 ;Reset Extruder
G1 Z2.0 F3000 ;Move Z Axis up
G1 X10.1 Y20 Z0.28 F5000.0 ;Move to start position
G1 X10.1 Y200.0 Z0.28 F1500.0 E15 ;Draw the first line
G1 X10.4 Y200.0 Z0.28 F5000.0 ;Move to side a little
G1 X10.4 Y20 Z0.28 F1500.0 E30 ;Draw the second line
G92 E0 ;Reset Extruder
G1 Z2.0 F3000 ;Move Z Axis up

G92 E0
G92 E0
G1 F1500 E-6
;LAYER_COUNT:432
;LAYER:0
M107
M204 S500
M205 X20 Y20
G0 F6000 X81.57 Y61.982 Z0.2
;TYPE:SKIRT
G1 F1500 E0
G1 X81.873 Y61.589 E0.01651
G1 X82.384 Y60.973 E0.04313
G1 X82.874 Y60.425 E0.06758
G1 X83.578 Y59.707 E0.10102
G1 X84.087 Y59.233 E0.12415
G1 X84.465 Y58.897 E0.14097
G1 X84.637 Y58.751 E0.14848
G1 X85.137 Y58.351 E0.16978
G1 X85.526 Y58.058 E0.18597
G1 X85.792 Y57.863 E0.19694
G1 X85.956 Y57.747 E0.20362
G1 X86.495 Y57.389 E0.22515
G1 X86.94 Y57.112 E0.24258
G1 X87.273 Y56.913 E0.25548
G1 X87.454 Y56.809 E0.26243
G1 X87.978 Y56.527 E0.28222
G1 X88.41 Y56.309 E0.29831
G1 X88.769 Y56.136 E0.31157
G1 X88.969 Y56.044 E0.31889
G1 X89.516 Y55.81 E0.33868
G1 X90.011 Y55.614 E0.35638
G1 X90.795 Y55.337 E0.38404
G1 X91.493 Y55.12 E0.40835
G1 X92.428 Y54.874 E0.44051
G1 X93.083 Y54.732 E0.4628
G1 X94.075 Y54.564 E0.49626
G1 X94.817 Y54.473 E0.52113
G1 X95.343 Y54.421 E0.53871
G1 X95.586 Y54.403 E0.54681
G1 X96.196 Y54.375 E0.56712
G1 X96.576 Y54.368 E0.57976
G1 X96.869 Y54.366 E0.58951
G1 X97.114 Y54.368 E0.59766
G1 X97.792 Y54.395 E0.62022
G1 X98.392 Y54.437 E0.64023
G1 X99.234 Y54.528 E0.6684
G1 X99.876 Y54.623 E0.68998
G1 X100.84 Y54.81 E0.72264
G1 X101.588 Y54.99 E0.74823
G1 X102.542 Y55.266 E0.78126
G1 X103.171 Y55.479 E0.80335
G1 X104.104 Y55.843 E0.83666
G1 X104.814 Y56.158 E0.8625
G1 X105.674 Y56.586 E0.89445
G1 X106.253 Y56.906 E0.91645
G1 X106.685 Y57.157 E0.93307
G1 X106.861 Y57.265 E0.93993
G1 X107.492 Y57.683 E0.96511
G1 X108.087 Y58.107 E0.98941
G1 X108.798 Y58.659 E1.01935
G1 X109.189 Y58.989 E1.03637
G1 X109.807 Y59.552 E1.06417
G1 X110.349 Y60.085 E1.08945
G1 X111.03 Y60.819 E1.12276
G1 X111.467 Y61.335 E1.14525
G1 X111.773 Y61.712 E1.1614
G1 X111.903 Y61.88 E1.16846
G1 X112.279 Y62.396 E1.1897
G1 X112.555 Y62.799 E1.20594
G1 X112.746 Y63.088 E1.21746
G1 X112.856 Y63.26 E1.22425
G1 X113.187 Y63.813 E1.24569
G1 X113.444 Y64.272 E1.26319
G1 X113.59 Y64.542 E1.2734
G1 X113.689 Y64.731 E1.28049
G1 X113.984 Y65.339 E1.30297
G1 X114.19 Y65.799 E1.31973
G1 X114.495 Y66.554 E1.34682
G1 X114.738 Y67.226 E1.37058
G1 X115.03 Y68.161 E1.40316
G1 X115.216 Y68.866 E1.42741
G1 X115.425 Y69.83 E1.46022
G1 X115.541 Y70.513 E1.48326
G1 X115.616 Y71.034 E1.50077
G1 X115.642 Y71.249 E1.50797
G1 X115.7 Y71.883 E1.52915
G1 X115.732 Y72.394 E1.54618
G1 X115.748 Y72.731 E1.5574
G1 X115.756 Y72.982 E1.56575
G1 X115.758 Y73.641 E1.58767
G1 X115.747 Y74.032 E1.60068
G1 X115.734 Y74.328 E1.61053
G1 X115.721 Y74.564 E1.6184
G1 X115.664 Y75.236 E1.64083
G1 X115.592 Y75.852 E1.66145
G1 X115.46 Y76.692 E1.68974
G1 X115.339 Y77.309 E1.71065
G1 X115.234 Y77.789 E1.72699
G1 X115.182 Y78.003 E1.73431
G1 X115.014 Y78.617 E1.75549
G1 X114.862 Y79.115 E1.77281
G1 X114.762 Y79.427 E1.7837
G1 X114.69 Y79.64 E1.79118
G1 X114.456 Y80.267 E1.81344
G1 X114.28 Y80.699 E1.82895
G1 X114.112 Y81.09 E1.84311
G1 X114.02 Y81.293 E1.85052
G1 X113.779 Y81.791 E1.86892
G1 X113.528 Y82.278 E1.88715
G1 X113.104 Y83.027 E1.91577
G1 X112.721 Y83.646 E1.93998
G1 X112.185 Y84.434 E1.97168
G1 X111.795 Y84.957 E1.99338
G1 X111.468 Y85.374 E2.011
G1 X111.328 Y85.544 E2.01833
G1 X110.925 Y86.007 E2.03874
G1 X110.559 Y86.404 E2.0567
G1 X109.95 Y87.014 E2.08537
G1 X109.414 Y87.511 E2.10968
G1 X108.688 Y88.128 E2.14137
G1 X108.166 Y88.534 E2.16337
G1 X107.743 Y88.847 E2.18087
G1 X107.554 Y88.98 E2.18856
G1 X107.023 Y89.331 E2.20973
G1 X106.591 Y89.599 E2.22664
G1 X106.291 Y89.779 E2.23827
G1 X106.116 Y89.88 E2.24499
G1 X105.562 Y90.179 E2.26593
G1 X105.107 Y90.408 E2.28287
G1 X104.797 Y90.558 E2.29433
G1 X104.599 Y90.65 E2.30159
G1 X104.014 Y90.901 E2.32276
G1 X103.562 Y91.08 E2.33893
G1 X102.751 Y91.365 E2.36752
G1 X101.985 Y91.601 E2.39418
G1 X101.08 Y91.839 E2.42531
G1 X100.518 Y91.961 E2.44443
G1 X99.992 Y92.061 E2.46224
G1 X99.722 Y92.106 E2.47135
G1 X99.1 Y92.192 E2.49223
G1 X98.565 Y92.25 E2.51013
G1 X98.211 Y92.283 E2.52195
G1 X98 Y92.299 E2.52899
G1 X97.38 Y92.328 E2.54964
G1 X96.965 Y92.336 E2.56344
G1 X96.655 Y92.338 E2.57375
G1 X96.431 Y92.336 E2.5812
G1 X95.749 Y92.308 E2.60391
G1 X95.158 Y92.266 E2.62361
G1 X94.37 Y92.182 E2.64997
G1 X93.731 Y92.09 E2.67144
G1 X93.21 Y92.002 E2.68902
G1 X92.998 Y91.961 E2.6962
G1 X92.342 Y91.813 E2.71856
G1 X91.787 Y91.67 E2.73763
G1 X90.999 Y91.435 E2.76498
G1 X90.368 Y91.221 E2.78714
G1 X89.441 Y90.859 E2.82024
G1 X88.733 Y90.545 E2.846
G1 X87.859 Y90.11 E2.87847
G1 X87.262 Y89.779 E2.90117
G1 X86.423 Y89.264 E2.93392
G1 X85.861 Y88.883 E2.9565
G1 X85.461 Y88.598 E2.97283
G1 X85.253 Y88.443 E2.98146
G1 X84.73 Y88.028 E3.00367
G1 X84.364 Y87.719 E3.0196
G1 X83.745 Y87.154 E3.04747
G1 X83.18 Y86.598 E3.07384
G1 X82.512 Y85.881 E3.10643
G1 X82.105 Y85.402 E3.12734
G1 X81.785 Y85.006 E3.14427
G1 X81.659 Y84.843 E3.15112
G1 X81.286 Y84.33 E3.17222
G1 X80.969 Y83.867 E3.19088
G1 X80.542 Y83.194 E3.21739
G1 X80.198 Y82.604 E3.24011
G1 X79.94 Y82.134 E3.25794
G1 X79.847 Y81.955 E3.26465
G1 X79.559 Y81.357 E3.28673
G1 X79.332 Y80.847 E3.30529
G1 X79.032 Y80.103 E3.33197
G1 X78.805 Y79.473 E3.35425
G1 X78.514 Y78.533 E3.38698
G1 X78.325 Y77.812 E3.41177
G1 X78.217 Y77.364 E3.42709
G1 X78.173 Y77.162 E3.43397
G1 X78.044 Y76.459 E3.45774
G1 X77.972 Y75.981 E3.47382
G1 X77.928 Y75.658 E3.48466
G1 X77.902 Y75.442 E3.4919
G1 X77.845 Y74.816 E3.5128
G1 X77.813 Y74.306 E3.5298
G1 X77.796 Y73.947 E3.54175
G1 X77.79 Y73.747 E3.54841
G1 X77.789 Y73.128 E3.569
G1 X77.802 Y72.633 E3.58547
G1 X77.855 Y71.807 E3.613
G1 X77.931 Y71.061 E3.63794
G1 X77.996 Y70.539 E3.65543
G1 X78.027 Y70.333 E3.66236
G1 X78.141 Y69.703 E3.68366
G1 X78.24 Y69.233 E3.69963
G1 X78.32 Y68.882 E3.7116
G1 X78.369 Y68.682 E3.71845
G1 X78.532 Y68.089 E3.73891
G1 X78.684 Y67.591 E3.75623
G1 X78.798 Y67.238 E3.76856
G1 X78.873 Y67.019 E3.77626
G1 X79.082 Y66.46 E3.79611
G1 X79.251 Y66.042 E3.81111
G1 X79.422 Y65.643 E3.82555
G1 X79.514 Y65.439 E3.83299
G1 X79.761 Y64.926 E3.85193
G1 X80.022 Y64.419 E3.87089
G1 X80.441 Y63.678 E3.89921
G1 X80.789 Y63.114 E3.92125
G1 X81.064 Y62.69 E3.93806
G1 X81.103 Y62.632 E3.94038
G0 F1350 X81.195 Y62.498
G0 X81.57 Y61.982
G0 F6000 X81.886 Y62.226
G1 F1500 X82.189 Y61.833 E3.95689
G1 X82.682 Y61.24 E3.98254
G1 X83.172 Y60.692 E4.00699
G1 X83.85 Y60 E4.03921
G1 X84.359 Y59.526 E4.06234
G1 X84.723 Y59.202 E4.07855
G1 X84.895 Y59.056 E4.08605
G1 X85.378 Y58.67 E4.10662
G1 X85.767 Y58.377 E4.12282
G1 X86.023 Y58.19 E4.13336
G1 X86.187 Y58.074 E4.14004
G1 X86.706 Y57.729 E4.16077
G1 X87.151 Y57.452 E4.1782
G1 X87.472 Y57.26 E4.19064
G1 X87.653 Y57.156 E4.19759
G1 X88.159 Y56.884 E4.21669
G1 X88.591 Y56.666 E4.23279
G1 X88.936 Y56.499 E4.24554
G1 X89.136 Y56.407 E4.25286
G1 X89.664 Y56.181 E4.27196
G1 X90.159 Y55.985 E4.28967
G1 X90.914 Y55.719 E4.31629
G1 X91.612 Y55.502 E4.3406
G1 X92.513 Y55.265 E4.37159
G1 X93.168 Y55.123 E4.39388
G1 X94.124 Y54.961 E4.42613
G1 X94.866 Y54.87 E4.451
G1 X95.373 Y54.82 E4.46794
G1 X95.616 Y54.802 E4.47605
G1 X96.204 Y54.775 E4.49562
G1 X96.584 Y54.768 E4.50826
G1 X96.866 Y54.766 E4.51764
G1 X97.111 Y54.768 E4.52579
G1 X97.764 Y54.794 E4.54753
G1 X98.364 Y54.836 E4.56753
G1 X99.176 Y54.924 E4.5947
G1 X99.818 Y55.019 E4.61628
G1 X100.746 Y55.199 E4.64773
G1 X101.494 Y55.379 E4.67331
G1 X102.414 Y55.645 E4.70517
G1 X103.043 Y55.858 E4.72725
G1 X103.942 Y56.209 E4.75935
G1 X104.652 Y56.524 E4.78519
G1 X105.48 Y56.936 E4.81595
G1 X106.059 Y57.256 E4.83795
G1 X106.476 Y57.498 E4.85399
G1 X106.652 Y57.606 E4.86086
G1 X107.26 Y58.009 E4.88512
G1 X107.855 Y58.433 E4.90942
G1 X108.54 Y58.964 E4.93824
G1 X108.931 Y59.294 E4.95526
G1 X109.526 Y59.837 E4.98205
G1 X110.068 Y60.37 E5.00734
G1 X110.725 Y61.077 E5.03944
G1 X111.162 Y61.593 E5.06193
G1 X111.456 Y61.957 E5.07749
G1 X111.586 Y62.125 E5.08455
G1 X111.949 Y62.622 E5.10502
G1 X112.225 Y63.025 E5.12127
G1 X112.409 Y63.304 E5.13239
G1 X112.519 Y63.476 E5.13918
G1 X112.838 Y64.008 E5.15981
G1 X113.095 Y64.467 E5.17731
G1 X113.236 Y64.728 E5.18717
G1 X113.335 Y64.917 E5.19427
G1 X113.619 Y65.503 E5.21593
G1 X113.825 Y65.963 E5.23269
G1 X114.119 Y66.69 E5.25877
G1 X114.362 Y67.362 E5.28254
G1 X114.643 Y68.263 E5.31393
G1 X114.829 Y68.968 E5.33818
G1 X115.03 Y69.897 E5.3698
G1 X115.146 Y70.58 E5.39284
G1 X115.219 Y71.082 E5.40971
G1 X115.245 Y71.297 E5.41691
G1 X115.301 Y71.908 E5.43732
G1 X115.333 Y72.419 E5.45435
G1 X115.349 Y72.743 E5.46514
G1 X115.357 Y72.994 E5.47349
G1 X115.358 Y73.63 E5.49464
G1 X115.347 Y74.021 E5.50765
G1 X115.335 Y74.306 E5.51714
G1 X115.322 Y74.542 E5.525
G1 X115.266 Y75.19 E5.54664
G1 X115.194 Y75.806 E5.56726
G1 X115.068 Y76.615 E5.5945
G1 X114.947 Y77.232 E5.61541
G1 X114.845 Y77.695 E5.63118
G1 X114.793 Y77.909 E5.6385
G1 X114.631 Y78.5 E5.65888
G1 X114.479 Y78.998 E5.6762
G1 X114.383 Y79.298 E5.68668
G1 X114.311 Y79.511 E5.69416
G1 X114.086 Y80.116 E5.71563
G1 X113.91 Y80.548 E5.73114
G1 X113.748 Y80.925 E5.74479
G1 X113.656 Y81.128 E5.7522
G1 X113.423 Y81.608 E5.76995
G1 X113.172 Y82.095 E5.78817
G1 X112.764 Y82.816 E5.81572
G1 X112.381 Y83.435 E5.83993
G1 X111.865 Y84.195 E5.87049
G1 X111.475 Y84.718 E5.89219
G1 X111.159 Y85.119 E5.90917
G1 X111.019 Y85.289 E5.91649
G1 X110.63 Y85.736 E5.9362
G1 X110.264 Y86.133 E5.95416
G1 X109.678 Y86.721 E5.98177
G1 X109.142 Y87.218 E6.00608
G1 X108.443 Y87.812 E6.03659
G1 X107.921 Y88.218 E6.05859
G1 X107.513 Y88.52 E6.07547
G1 X107.324 Y88.653 E6.08316
G1 X106.812 Y88.991 E6.10356
G1 X106.38 Y89.259 E6.12047
G1 X106.091 Y89.433 E6.13169
G1 X105.916 Y89.534 E6.13841
G1 X105.382 Y89.821 E6.15857
G1 X104.927 Y90.05 E6.17552
G1 X104.629 Y90.195 E6.18654
G1 X104.431 Y90.287 E6.1938
G1 X103.867 Y90.529 E6.21421
G1 X103.415 Y90.708 E6.23038
G1 X102.633 Y90.983 E6.25795
G1 X101.867 Y91.219 E6.28461
G1 X100.995 Y91.448 E6.3146
G1 X100.433 Y91.57 E6.33373
G1 X99.927 Y91.667 E6.35086
G1 X99.657 Y91.712 E6.35997
G1 X99.056 Y91.794 E6.38014
G1 X98.521 Y91.852 E6.39804
G1 X98.18 Y91.884 E6.40943
G1 X97.969 Y91.9 E6.41647
G1 X97.372 Y91.928 E6.43635
G1 X96.957 Y91.936 E6.45015
G1 X96.658 Y91.938 E6.4601
G1 X96.434 Y91.936 E6.46755
G1 X95.778 Y91.909 E6.48939
G1 X95.187 Y91.867 E6.50909
G1 X94.427 Y91.786 E6.53451
G1 X93.788 Y91.694 E6.55599
G1 X93.286 Y91.609 E6.57292
G1 X93.074 Y91.568 E6.5801
G1 X92.442 Y91.426 E6.60165
G1 X91.887 Y91.283 E6.62071
G1 X91.128 Y91.056 E6.64706
G1 X90.497 Y90.842 E6.66922
G1 X89.604 Y90.494 E6.7011
G1 X88.896 Y90.18 E6.72686
G1 X88.053 Y89.76 E6.75818
G1 X87.456 Y89.429 E6.78089
G1 X86.648 Y88.933 E6.81242
G1 X86.086 Y88.552 E6.835
G1 X85.7 Y88.278 E6.85075
G1 X85.492 Y88.123 E6.85937
G1 X84.988 Y87.722 E6.88079
G1 X84.622 Y87.413 E6.89673
G1 X84.025 Y86.869 E6.92359
G1 X83.46 Y86.313 E6.94995
G1 X82.817 Y85.622 E6.98135
G1 X82.41 Y85.143 E7.00225
G1 X82.102 Y84.762 E7.01855
G1 X81.976 Y84.599 E7.0254
G1 X81.616 Y84.104 E7.04576
G1 X81.299 Y83.641 E7.06442
G1 X80.888 Y82.992 E7.08997
G1 X80.544 Y82.402 E7.11269
G1 X80.295 Y81.95 E7.12985
G1 X80.202 Y81.771 E7.13656
G1 X79.924 Y81.194 E7.15786
G1 X79.697 Y80.684 E7.17643
G1 X79.409 Y79.967 E7.20213
G1 X79.182 Y79.337 E7.2244
G1 X78.9 Y78.432 E7.25593
G1 X78.711 Y77.711 E7.28072
G1 X78.608 Y77.279 E7.29549
G1 X78.564 Y77.077 E7.30237
G1 X78.439 Y76.4 E7.32527
G1 X78.367 Y75.922 E7.34134
G1 X78.325 Y75.61 E7.35181
G1 X78.299 Y75.394 E7.35905
G1 X78.244 Y74.791 E7.37919
G1 X78.212 Y74.281 E7.39619
G1 X78.196 Y73.935 E7.40771
G1 X78.19 Y73.735 E7.41436
G1 X78.189 Y73.139 E7.43418
G1 X78.202 Y72.644 E7.45065
G1 X78.253 Y71.848 E7.47718
G1 X78.329 Y71.102 E7.50212
G1 X78.392 Y70.599 E7.51898
G1 X78.423 Y70.393 E7.52591
G1 X78.533 Y69.785 E7.54646
G1 X78.632 Y69.315 E7.56244
G1 X78.708 Y68.978 E7.57393
G1 X78.757 Y68.778 E7.58078
G1 X78.915 Y68.206 E7.60051
G1 X79.067 Y67.708 E7.61783
G1 X79.177 Y67.368 E7.62972
G1 X79.252 Y67.149 E7.63742
G1 X79.453 Y66.61 E7.65655
G1 X79.622 Y66.192 E7.67155
G1 X79.786 Y65.807 E7.68547
G1 X79.878 Y65.603 E7.69291
G1 X80.116 Y65.109 E7.71115
G1 X80.377 Y64.602 E7.73011
G1 X80.781 Y63.888 E7.7574
G1 X81.129 Y63.324 E7.77944
G1 X81.394 Y62.916 E7.79562
G1 X81.421 Y62.877 E7.7972
G0 F1350 X81.525 Y62.724
G0 X81.886 Y62.226
G0 F6000 X82.203 Y62.47
G1 F1500 X82.506 Y62.077 E7.8137
G1 X82.98 Y61.506 E7.83839
G1 X83.47 Y60.958 E7.86284
G1 X84.123 Y60.292 E7.89386
G1 X84.632 Y59.818 E7.91699
G1 X84.982 Y59.507 E7.93257
G1 X85.154 Y59.361 E7.94007
G1 X85.618 Y58.99 E7.95983
G1 X86.007 Y58.697 E7.97603
G1 X86.254 Y58.517 E7.98619
G1 X86.418 Y58.401 E7.99287
G1 X86.918 Y58.069 E8.01284
G1 X87.363 Y57.792 E8.03027
G1 X87.671 Y57.607 E8.04222
G1 X87.852 Y57.503 E8.04916
G1 X88.339 Y57.241 E8.06756
G1 X88.771 Y57.023 E8.08365
G1 X89.103 Y56.862 E8.09592
G1 X89.303 Y56.77 E8.10324
G1 X89.811 Y56.553 E8.12162
G1 X90.306 Y56.357 E8.13932
G1 X91.033 Y56.101 E8.16496
G1 X91.731 Y55.884 E8.18927
G1 X92.598 Y55.656 E8.21909
G1 X93.253 Y55.514 E8.24138
G1 X94.172 Y55.358 E8.27238
G1 X94.914 Y55.267 E8.29725
G1 X95.403 Y55.219 E8.31359
G1 X95.646 Y55.201 E8.32169
G1 X96.211 Y55.175 E8.34051
G1 X96.591 Y55.168 E8.35315
G1 X96.862 Y55.166 E8.36216
G1 X97.107 Y55.168 E8.37031
G1 X97.736 Y55.193 E8.39125
G1 X98.336 Y55.235 E8.41125
G1 X99.117 Y55.32 E8.43738
G1 X99.759 Y55.415 E8.45897
G1 X100.652 Y55.588 E8.48922
G1 X101.4 Y55.768 E8.51481
G1 X102.286 Y56.024 E8.54548
G1 X102.915 Y56.237 E8.56757
G1 X103.78 Y56.574 E8.59845
G1 X104.49 Y56.889 E8.62428
G1 X105.287 Y57.286 E8.6539
G1 X105.866 Y57.606 E8.6759
G1 X106.267 Y57.839 E8.69132
G1 X106.443 Y57.947 E8.69819
G1 X107.027 Y58.334 E8.72149
G1 X107.622 Y58.758 E8.74579
G1 X108.282 Y59.27 E8.77358
G1 X108.673 Y59.6 E8.79059
G1 X109.246 Y60.122 E8.81638
G1 X109.788 Y60.655 E8.84166
G1 X110.42 Y61.336 E8.87256
G1 X110.857 Y61.852 E8.89505
G1 X111.14 Y62.202 E8.91002
G1 X111.27 Y62.37 E8.91709
G1 X111.619 Y62.848 E8.93677
G1 X111.895 Y63.251 E8.95302
G1 X112.072 Y63.519 E8.9637
G1 X112.182 Y63.691 E8.97049
G1 X112.489 Y64.204 E8.99037
G1 X112.746 Y64.663 E9.00787
G1 X112.881 Y64.913 E9.01732
G1 X112.98 Y65.102 E9.02442
G1 X113.254 Y65.666 E9.04527
G1 X113.46 Y66.126 E9.06204
G1 X113.743 Y66.826 E9.08715
G1 X113.986 Y67.498 E9.11092
G1 X114.257 Y68.365 E9.14113
G1 X114.443 Y69.07 E9.16538
G1 X114.636 Y69.964 E9.1958
G1 X114.752 Y70.647 E9.21884
G1 X114.822 Y71.13 E9.23507
G1 X114.848 Y71.345 E9.24228
G1 X114.902 Y71.933 E9.26191
G1 X114.934 Y72.444 E9.27894
G1 X114.949 Y72.756 E9.28933
G1 X114.957 Y73.007 E9.29769
G1 X114.958 Y73.619 E9.31804
G1 X114.947 Y74.01 E9.33105
G1 X114.936 Y74.284 E9.34017
G1 X114.923 Y74.52 E9.34803
G1 X114.869 Y75.143 E9.36883
G1 X114.797 Y75.759 E9.38946
G1 X114.675 Y76.538 E9.41568
G1 X114.554 Y77.155 E9.4366
G1 X114.457 Y77.6 E9.45175
G1 X114.405 Y77.814 E9.45907
