;FLAVOR:Marlin
;TIME:4794
;Filament used: 1.71149m
;Layer height: 0.2
;MINX:90.315
;MINY:38.99
;MINZ:0.2
;MAXX:128.282
;MAXY:76.962
;MAXZ:86.4
;Generated with Cura_SteamEngine 4.4.1
M140 S60
M105
M190 S60
M104 S205
M105
M109 S205
M82 ;absolute extrusion mode
M201 X500.00 Y500.00 Z100.00 E5000.00 ;Setup machine max acceleration
M203 X500.00 Y500.00 Z10.00 E50.00 ;Setup machine max feedrate
M204 P500.00 R1000.00 T500.00 ;Setup Print/Retract/Travel acceleration
M205 X8.00 Y8.00 Z0.40 E5.00 ;Setup Jerk
M220 S100 ;Reset Feedrate
M221 S100 ;Reset Flowrate

G28 ;Home

G92 E0 ;Reset Extruder
G1 Z2.0 F3000 ;Move Z Axis up
G1 X10.1 Y20 Z0.28 F5000.0 ;Move to start position
G1 X10.1 Y200.0 Z0.28 F1500.0 E15 ;Draw the first line
G1 X10.4 Y200.0 Z0.28 F5000.0 ;Move to side a little
G1 X10.4 Y20 Z0.28 F1500.0 E30 ;Draw the second line
G92 E0 ;Reset Extruder
G1 Z2.0 F3000 ;Move Z Axis up

G92 E0
G92 E0
G1 F1500 E-6
;LAYER_COUNT:432
;LAYER:0
M107
M204 S500
M205 X20 Y20
G0 F6000 X92.539 Y49.059 Z0.2
;TYPE:SKIRT
G1 F1500 E0
G1 X92.983 Y48.275 E0.02997
G1 X93.36 Y47.668 E0.05373
G1 X93.866 Y46.923 E0.08369
G1 X94.235 Y46.425 E0.1043
G1 X94.568 Y45.998 E0.12231
G1 X94.714 Y45.82 E0.12997
G1 X95.128 Y45.344 E0.15095
G1 X95.536 Y44.901 E0.17098
G1 X96.174 Y44.263 E0.20099
G1 X96.682 Y43.795 E0.22397
G1 X97.359 Y43.22 E0.25351
G1 X97.868 Y42.822 E0.275
G1 X98.304 Y42.498 E0.29307
G1 X98.494 Y42.364 E0.3008
G1 X99.021 Y42.014 E0.32184
G1 X99.466 Y41.737 E0.33927
G1 X99.799 Y41.538 E0.35218
G1 X99.98 Y41.434 E0.35912
G1 X100.504 Y41.152 E0.37891
G1 X100.936 Y40.934 E0.39501
G1 X101.279 Y40.768 E0.40768
G1 X101.476 Y40.677 E0.4149
G1 X102.043 Y40.434 E0.43541
G1 X102.541 Y40.237 E0.45323
G1 X103.321 Y39.962 E0.48074
G1 X104.019 Y39.745 E0.50505
G1 X104.954 Y39.499 E0.5372
G1 X105.609 Y39.357 E0.55949
G1 X106.14 Y39.255 E0.57748
G1 X106.357 Y39.219 E0.58479
G1 X106.98 Y39.134 E0.60571
G1 X107.491 Y39.079 E0.6228
G1 X107.831 Y39.048 E0.63416
G1 X108.067 Y39.03 E0.64203
G1 X108.692 Y39 E0.66284
G1 X109.107 Y38.992 E0.67665
G1 X109.417 Y38.99 E0.68696
G1 X109.641 Y38.992 E0.69441
G1 X110.323 Y39.02 E0.71711
G1 X110.914 Y39.062 E0.73682
G1 X111.702 Y39.146 E0.76317
G1 X112.341 Y39.238 E0.78465
G1 X112.862 Y39.326 E0.80222
G1 X113.074 Y39.367 E0.8094
G1 X113.73 Y39.515 E0.83177
G1 X114.285 Y39.658 E0.85083
G1 X115.068 Y39.891 E0.878
G1 X115.697 Y40.104 E0.90009
G1 X116.63 Y40.468 E0.9334
G1 X117.34 Y40.783 E0.95923
G1 X118.2 Y41.211 E0.99119
G1 X118.779 Y41.531 E1.01319
G1 X119.211 Y41.782 E1.02981
G1 X119.387 Y41.89 E1.03667
G1 X119.969 Y42.273 E1.05985
G1 X120.402 Y42.578 E1.07746
G1 X121.02 Y43.047 E1.10327
G1 X121.59 Y43.512 E1.12773
G1 X122.334 Y44.177 E1.16092
G1 X122.819 Y44.652 E1.1835
G1 X123.184 Y45.028 E1.20093
G1 X123.339 Y45.195 E1.20851
G1 X123.756 Y45.67 E1.22953
G1 X124.061 Y46.039 E1.24545
G1 X124.285 Y46.32 E1.25741
G1 X124.411 Y46.483 E1.26426
G1 X124.784 Y46.996 E1.28535
G1 X125.101 Y47.459 E1.30402
G1 X125.289 Y47.742 E1.31532
G1 X125.41 Y47.931 E1.32278
G1 X125.739 Y48.479 E1.34404
G1 X125.918 Y48.798 E1.35621
G1 X126.064 Y49.067 E1.36639
G1 X126.2 Y49.326 E1.37612
G1 X126.494 Y49.93 E1.39846
G1 X126.721 Y50.435 E1.41687
G1 X127.045 Y51.239 E1.44571
G1 X127.284 Y51.907 E1.4693
G1 X127.574 Y52.847 E1.50202
G1 X127.753 Y53.536 E1.5257
G1 X127.85 Y53.942 E1.53958
G1 X127.897 Y54.156 E1.54687
G1 X128.032 Y54.889 E1.57166
G1 X128.096 Y55.317 E1.58605
G1 X128.131 Y55.573 E1.59465
G1 X128.158 Y55.788 E1.60185
G1 X128.222 Y56.471 E1.62467
G1 X128.26 Y57.077 E1.64486
G1 X128.282 Y57.859 E1.67088
G1 X128.277 Y58.441 E1.69024
G1 X128.261 Y58.949 E1.70715
G1 X128.249 Y59.168 E1.71444
G1 X128.189 Y59.854 E1.73735
G1 X128.112 Y60.507 E1.75921
G1 X127.987 Y61.314 E1.78638
G1 X127.877 Y61.881 E1.80559
G1 X127.767 Y62.385 E1.82274
G1 X127.714 Y62.603 E1.83021
G1 X127.551 Y63.198 E1.85072
G1 X127.375 Y63.778 E1.87088
G1 X127.093 Y64.592 E1.89954
G1 X126.861 Y65.185 E1.92072
G1 X126.636 Y65.717 E1.93993
G1 X126.549 Y65.909 E1.94694
G1 X126.313 Y66.398 E1.965
G1 X126.058 Y66.894 E1.98355
G1 X125.639 Y67.637 E2.01192
G1 X125.287 Y68.208 E2.03423
G1 X125.032 Y68.603 E2.04987
G1 X124.902 Y68.795 E2.05758
G1 X124.508 Y69.34 E2.07995
G1 X124.203 Y69.736 E2.09657
G1 X123.969 Y70.03 E2.10907
G1 X123.836 Y70.191 E2.11601
G1 X123.442 Y70.642 E2.13593
G1 X123.099 Y71.014 E2.15276
G1 X122.518 Y71.599 E2.18018
G1 X121.993 Y72.089 E2.20407
G1 X121.611 Y72.428 E2.22106
G1 X121.451 Y72.564 E2.22804
G1 X120.941 Y72.973 E2.24978
G1 X120.533 Y73.28 E2.26677
G1 X120.252 Y73.484 E2.27832
G1 X120.083 Y73.603 E2.28519
G1 X119.549 Y73.956 E2.30648
G1 X119.117 Y74.224 E2.32339
G1 X118.817 Y74.404 E2.33503
G1 X118.642 Y74.505 E2.34175
G1 X118.088 Y74.804 E2.36269
G1 X117.633 Y75.033 E2.37963
G1 X117.323 Y75.183 E2.39108
G1 X117.125 Y75.275 E2.39834
G1 X116.54 Y75.526 E2.41952
G1 X116.088 Y75.705 E2.43569
G1 X115.277 Y75.99 E2.46428
G1 X114.511 Y76.226 E2.49094
G1 X113.606 Y76.464 E2.52206
G1 X113.044 Y76.586 E2.54119
G1 X112.518 Y76.686 E2.55899
G1 X112.266 Y76.728 E2.56749
G1 X111.645 Y76.814 E2.58834
G1 X111.083 Y76.875 E2.60715
G1 X110.683 Y76.911 E2.6205
G1 X110.46 Y76.927 E2.62794
G1 X109.876 Y76.953 E2.64738
G1 X109.496 Y76.96 E2.66002
G1 X109.203 Y76.962 E2.66977
G1 X108.958 Y76.96 E2.67792
G1 X108.28 Y76.933 E2.70049
G1 X107.68 Y76.891 E2.72049
G1 X106.838 Y76.8 E2.74866
G1 X106.196 Y76.705 E2.77025
G1 X105.232 Y76.518 E2.80291
G1 X104.484 Y76.338 E2.82849
G1 X103.525 Y76.06 E2.8617
G1 X102.894 Y75.846 E2.88387
G1 X101.967 Y75.484 E2.91696
G1 X101.259 Y75.17 E2.94273
G1 X100.385 Y74.735 E2.9752
G1 X99.788 Y74.404 E2.9979
G1 X98.949 Y73.889 E3.03064
G1 X98.387 Y73.508 E3.05323
G1 X98.006 Y73.237 E3.06878
G1 X97.789 Y73.076 E3.07776
G1 X97.243 Y72.644 E3.10092
G1 X96.901 Y72.355 E3.11581
G1 X96.693 Y72.175 E3.12496
G1 X96.531 Y72.031 E3.13217
G1 X96.012 Y71.538 E3.15598
G1 X95.617 Y71.138 E3.17468
G1 X95.055 Y70.524 E3.20236
G1 X94.608 Y69.997 E3.22535
G1 X94.282 Y69.594 E3.24259
G1 X94.148 Y69.42 E3.24989
G1 X93.786 Y68.921 E3.27039
G1 X93.504 Y68.509 E3.287
G1 X93.055 Y67.797 E3.315
G1 X92.69 Y67.165 E3.33927
G1 X92.463 Y66.75 E3.355
G1 X92.366 Y66.564 E3.36198
G1 X92.073 Y65.958 E3.38437
G1 X91.879 Y65.523 E3.40021
G1 X91.764 Y65.256 E3.40988
G1 X91.679 Y65.051 E3.41726
G1 X91.432 Y64.398 E3.44048
G1 X91.275 Y63.939 E3.45662
G1 X91.168 Y63.611 E3.46809
G1 X91.101 Y63.393 E3.47568
G1 X90.935 Y62.789 E3.49651
G1 X90.81 Y62.281 E3.51391
G1 X90.641 Y61.466 E3.5416
G1 X90.522 Y60.754 E3.5656
G1 X90.448 Y60.232 E3.58314
G1 X90.424 Y60.029 E3.58994
G1 X90.37 Y59.431 E3.60991
G1 X90.339 Y58.94 E3.62627
G1 X90.322 Y58.567 E3.63869
G1 X90.316 Y58.361 E3.64555
G1 X90.315 Y57.752 E3.6658
G1 X90.328 Y57.257 E3.68227
G1 X90.342 Y56.912 E3.69376
G1 X90.355 Y56.687 E3.70125
G1 X90.41 Y56.055 E3.72235
G1 X90.467 Y55.563 E3.73882
G1 X90.601 Y54.706 E3.76767
G1 X90.756 Y53.918 E3.79439
G1 X90.992 Y52.95 E3.82752
G1 X91.17 Y52.342 E3.8486
G1 X91.307 Y51.907 E3.86376
G1 X91.374 Y51.709 E3.87072
G1 X91.609 Y51.08 E3.89305
G1 X91.793 Y50.629 E3.90925
G1 X91.947 Y50.27 E3.92224
G1 X92.037 Y50.07 E3.92954
G1 X92.18 Y49.774 E3.94047
G0 F1350 X92.28 Y49.564
G0 X92.539 Y49.059
G0 F6000 X92.895 Y49.242
G1 F1500 X93.322 Y48.486 E3.96935
G1 X93.699 Y47.879 E3.99312
G1 X94.187 Y47.161 E4.02199
G1 X94.556 Y46.663 E4.04261
G1 X94.877 Y46.252 E4.05995
G1 X95.023 Y46.074 E4.06761
G1 X95.422 Y45.615 E4.08784
G1 X95.83 Y45.172 E4.10787
G1 X96.445 Y44.557 E4.13679
G1 X96.953 Y44.089 E4.15977
G1 X97.606 Y43.535 E4.18825
G1 X98.115 Y43.137 E4.20974
G1 X98.535 Y42.825 E4.22714
G1 X98.725 Y42.691 E4.23487
G1 X99.232 Y42.354 E4.25512
G1 X99.677 Y42.077 E4.27256
G1 X99.998 Y41.885 E4.285
G1 X100.179 Y41.781 E4.29194
G1 X100.685 Y41.509 E4.31105
G1 X101.117 Y41.291 E4.32714
G1 X101.447 Y41.131 E4.33934
G1 X101.644 Y41.04 E4.34656
G1 X102.19 Y40.806 E4.36632
G1 X102.688 Y40.609 E4.38413
G1 X103.44 Y40.344 E4.41065
G1 X104.138 Y40.127 E4.43496
G1 X105.039 Y39.89 E4.46595
G1 X105.694 Y39.748 E4.48824
G1 X106.205 Y39.65 E4.50554
G1 X106.422 Y39.614 E4.51286
G1 X107.023 Y39.532 E4.53303
G1 X107.534 Y39.477 E4.55013
G1 X107.862 Y39.447 E4.56108
G1 X108.098 Y39.429 E4.56895
G1 X108.7 Y39.4 E4.589
G1 X109.115 Y39.392 E4.60281
G1 X109.414 Y39.39 E4.61275
G1 X109.638 Y39.392 E4.6202
G1 X110.294 Y39.419 E4.64204
G1 X110.885 Y39.461 E4.66174
G1 X111.645 Y39.542 E4.68717
G1 X112.284 Y39.634 E4.70864
G1 X112.786 Y39.719 E4.72557
G1 X112.998 Y39.76 E4.73275
G1 X113.63 Y39.902 E4.7543
G1 X114.185 Y40.045 E4.77336
G1 X114.94 Y40.27 E4.79956
G1 X115.569 Y40.483 E4.82165
G1 X116.468 Y40.834 E4.85375
G1 X117.178 Y41.149 E4.87958
G1 X118.006 Y41.561 E4.91034
G1 X118.585 Y41.881 E4.93235
G1 X119.002 Y42.123 E4.94838
G1 X119.178 Y42.231 E4.95525
G1 X119.738 Y42.6 E4.97756
G1 X120.171 Y42.905 E4.99517
G1 X120.768 Y43.357 E5.02008
G1 X121.338 Y43.822 E5.04454
G1 X122.054 Y44.463 E5.07651
G1 X122.539 Y44.938 E5.09909
G1 X122.891 Y45.3 E5.11588
G1 X123.046 Y45.467 E5.12346
G1 X123.447 Y45.925 E5.14371
G1 X123.752 Y46.294 E5.15963
G1 X123.968 Y46.564 E5.17113
G1 X124.094 Y46.727 E5.17798
G1 X124.454 Y47.222 E5.19834
G1 X124.771 Y47.685 E5.217
G1 X124.952 Y47.958 E5.2279
G1 X125.073 Y48.147 E5.23536
G1 X125.39 Y48.675 E5.25584
G1 X125.569 Y48.994 E5.26801
G1 X125.71 Y49.253 E5.27782
G1 X125.846 Y49.512 E5.28755
G1 X126.129 Y50.094 E5.30907
G1 X126.356 Y50.599 E5.32749
G1 X126.668 Y51.374 E5.35527
G1 X126.907 Y52.042 E5.37887
G1 X127.186 Y52.948 E5.4104
G1 X127.365 Y53.637 E5.43408
G1 X127.459 Y54.028 E5.44745
G1 X127.506 Y54.242 E5.45474
G1 X127.636 Y54.948 E5.47862
G1 X127.7 Y55.376 E5.49301
G1 X127.734 Y55.623 E5.5013
G1 X127.761 Y55.838 E5.50851
G1 X127.823 Y56.496 E5.53049
G1 X127.861 Y57.102 E5.55069
G1 X127.882 Y57.856 E5.57578
G1 X127.877 Y58.438 E5.59513
G1 X127.861 Y58.927 E5.61141
G1 X127.849 Y59.146 E5.6187
G1 X127.792 Y59.807 E5.64077
G1 X127.715 Y60.46 E5.66264
G1 X127.594 Y61.238 E5.68883
G1 X127.484 Y61.805 E5.70804
G1 X127.378 Y62.29 E5.72455
G1 X127.325 Y62.508 E5.73201
G1 X127.168 Y63.082 E5.7518
G1 X126.992 Y63.662 E5.77196
G1 X126.72 Y64.446 E5.79956
G1 X126.488 Y65.039 E5.82074
G1 X126.272 Y65.552 E5.83925
G1 X126.185 Y65.744 E5.84627
G1 X125.957 Y66.216 E5.8637
G1 X125.702 Y66.712 E5.88225
G1 X125.298 Y67.427 E5.90956
G1 X124.946 Y67.998 E5.93187
G1 X124.7 Y68.379 E5.94696
G1 X124.57 Y68.571 E5.95467
G1 X124.191 Y69.096 E5.97621
G1 X123.886 Y69.492 E5.99283
G1 X123.66 Y69.775 E6.00488
G1 X123.527 Y69.936 E6.01182
G1 X123.148 Y70.37 E6.03099
G1 X122.805 Y70.742 E6.04782
G1 X122.245 Y71.306 E6.07425
G1 X121.72 Y71.796 E6.09814
G1 X121.352 Y72.124 E6.11453
G1 X121.192 Y72.26 E6.12152
G1 X120.7 Y72.653 E6.14246
G1 X120.292 Y72.96 E6.15944
G1 X120.022 Y73.157 E6.17056
G1 X119.853 Y73.276 E6.17743
G1 X119.338 Y73.616 E6.19796
G1 X118.906 Y73.884 E6.21487
G1 X118.617 Y74.058 E6.22609
G1 X118.442 Y74.159 E6.23281
G1 X117.908 Y74.446 E6.25297
G1 X117.453 Y74.675 E6.26991
G1 X117.155 Y74.82 E6.28094
G1 X116.957 Y74.912 E6.2882
G1 X116.393 Y75.154 E6.30861
G1 X115.941 Y75.333 E6.32478
G1 X115.159 Y75.608 E6.35235
G1 X114.393 Y75.844 E6.37901
G1 X113.521 Y76.073 E6.409
G1 X112.959 Y76.195 E6.42812
G1 X112.453 Y76.292 E6.44526
G1 X112.201 Y76.334 E6.45376
G1 X111.602 Y76.416 E6.47387
G1 X111.04 Y76.477 E6.49267
G1 X110.655 Y76.512 E6.50553
G1 X110.432 Y76.528 E6.51296
G1 X109.868 Y76.553 E6.53174
G1 X109.488 Y76.56 E6.54438
G1 X109.206 Y76.562 E6.55376
G1 X108.961 Y76.56 E6.56191
G1 X108.308 Y76.534 E6.58364
G1 X107.708 Y76.492 E6.60365
G1 X106.896 Y76.404 E6.63082
G1 X106.254 Y76.309 E6.6524
G1 X105.326 Y76.129 E6.68384
G1 X104.578 Y75.949 E6.70943
G1 X103.654 Y75.681 E6.74143
G1 X103.023 Y75.467 E6.76359
G1 X102.13 Y75.119 E6.79547
G1 X101.422 Y74.805 E6.82123
G1 X100.579 Y74.385 E6.85255
G1 X99.982 Y74.054 E6.87526
G1 X99.174 Y73.558 E6.90679
G1 X98.612 Y73.177 E6.92937
G1 X98.244 Y72.916 E6.94438
G1 X98.027 Y72.755 E6.95337
G1 X97.501 Y72.338 E6.97569
G1 X97.159 Y72.049 E6.99058
G1 X96.959 Y71.876 E6.99938
G1 X96.797 Y71.732 E7.00659
G1 X96.297 Y71.257 E7.02953
G1 X95.902 Y70.857 E7.04822
G1 X95.36 Y70.266 E7.0749
G1 X94.913 Y69.739 E7.09788
G1 X94.599 Y69.35 E7.11451
G1 X94.465 Y69.176 E7.12181
G1 X94.116 Y68.695 E7.14158
G1 X93.834 Y68.283 E7.15818
G1 X93.402 Y67.597 E7.18515
G1 X93.037 Y66.965 E7.20942
G1 X92.817 Y66.565 E7.2246
G1 X92.72 Y66.379 E7.23158
G1 X92.438 Y65.795 E7.25315
G1 X92.244 Y65.36 E7.26899
G1 X92.133 Y65.103 E7.2783
G1 X92.048 Y64.898 E7.28568
G1 X91.81 Y64.269 E7.30805
G1 X91.653 Y63.81 E7.32419
G1 X91.551 Y63.493 E7.33526
G1 X91.484 Y63.275 E7.34285
G1 X91.323 Y62.694 E7.3629
G1 X91.198 Y62.186 E7.3803
G1 X91.036 Y61.4 E7.40699
G1 X90.917 Y60.688 E7.431
G1 X90.845 Y60.186 E7.44787
G1 X90.821 Y59.983 E7.45467
G1 X90.769 Y59.406 E7.47394
G1 X90.738 Y58.915 E7.4903
G1 X90.721 Y58.556 E7.50226
G1 X90.715 Y58.35 E7.50911
G1 X90.715 Y57.763 E7.52863
G1 X90.728 Y57.268 E7.5451
G1 X90.742 Y56.935 E7.55619
G1 X90.755 Y56.71 E7.56368
G1 X90.807 Y56.101 E7.58401
G1 X90.864 Y55.609 E7.60049
G1 X90.993 Y54.783 E7.62829
G1 X91.148 Y53.995 E7.655
G1 X91.376 Y53.063 E7.68692
G1 X91.554 Y52.455 E7.70799
G1 X91.686 Y52.035 E7.72263
G1 X91.753 Y51.837 E7.72958
G1 X91.979 Y51.231 E7.75109
G1 X92.163 Y50.78 E7.7673
G1 X92.312 Y50.434 E7.77983
G1 X92.402 Y50.234 E7.78712
G1 X92.536 Y49.957 E7.79735
G0 F1350 X92.636 Y49.747
G0 X92.895 Y49.242
G0 F6000 X93.251 Y49.424
G1 F1500 X93.662 Y48.697 E7.82513
G1 X94.039 Y48.09 E7.8489
G1 X94.509 Y47.399 E7.87669
G1 X94.878 Y46.901 E7.89731
G1 X95.187 Y46.505 E7.91401
G1 X95.333 Y46.327 E7.92167
G1 X95.716 Y45.886 E7.9411
G1 X96.124 Y45.443 E7.96113
G1 X96.716 Y44.851 E7.98897
G1 X97.224 Y44.383 E8.01195
G1 X97.852 Y43.85 E8.03934
G1 X98.361 Y43.452 E8.06083
G1 X98.765 Y43.151 E8.07759
G1 X98.955 Y43.017 E8.08532
G1 X99.444 Y42.694 E8.10482
G1 X99.889 Y42.417 E8.12225
G1 X100.197 Y42.232 E8.1342
G1 X100.378 Y42.128 E8.14114
G1 X100.865 Y41.866 E8.15954
G1 X101.297 Y41.648 E8.17563
G1 X101.615 Y41.494 E8.18738
G1 X101.812 Y41.403 E8.1946
G1 X102.337 Y41.178 E8.2136
G1 X102.835 Y40.981 E8.23141
G1 X103.559 Y40.726 E8.25694
G1 X104.257 Y40.509 E8.28125
G1 X105.124 Y40.281 E8.31107
G1 X105.779 Y40.139 E8.33336
G1 X106.271 Y40.045 E8.35002
G1 X106.488 Y40.009 E8.35734
G1 X107.065 Y39.93 E8.37671
G1 X107.576 Y39.875 E8.3938
G1 X107.892 Y39.846 E8.40435
G1 X108.128 Y39.828 E8.41223
G1 X108.707 Y39.8 E8.43151
G1 X109.122 Y39.792 E8.44531
G1 X109.41 Y39.79 E8.45489
G1 X109.634 Y39.792 E8.46234
G1 X110.266 Y39.818 E8.48338
G1 X110.857 Y39.86 E8.50309
G1 X111.588 Y39.938 E8.52754
G1 X112.227 Y40.03 E8.54901
G1 X112.71 Y40.112 E8.5653
G1 X112.922 Y40.153 E8.57249
G1 X113.53 Y40.29 E8.59322
G1 X114.085 Y40.433 E8.61228
G1 X114.812 Y40.649 E8.6375
G1 X115.441 Y40.862 E8.65959
G1 X116.306 Y41.199 E8.69047
G1 X117.016 Y41.514 E8.7163
G1 X117.813 Y41.911 E8.74592
G1 X118.392 Y42.231 E8.76792
G1 X118.793 Y42.464 E8.78334
G1 X118.969 Y42.572 E8.79021
G1 X119.508 Y42.927 E8.81168
G1 X119.941 Y43.232 E8.82929
G1 X120.515 Y43.667 E8.85325
G1 X121.085 Y44.132 E8.87771
G1 X121.774 Y44.749 E8.90848
G1 X122.259 Y45.224 E8.93106
G1 X122.598 Y45.572 E8.94721
G1 X122.753 Y45.739 E8.95479
G1 X123.139 Y46.18 E8.97429
G1 X123.444 Y46.549 E8.99021
G1 X123.652 Y46.809 E9.00128
G1 X123.778 Y46.972 E9.00813
G1 X124.124 Y47.448 E9.02771
G1 X124.441 Y47.911 E9.04637
G1 X124.615 Y48.173 E9.05683
G1 X124.736 Y48.362 E9.06429
G1 X125.041 Y48.871 E9.08403
G1 X125.22 Y49.19 E9.0962
G1 X125.356 Y49.439 E9.10563
G1 X125.492 Y49.698 E9.11536
