;FLAVOR:Marlin
;TIME:1981
;Filament used: 0.813713m
;Layer height: 0.2
;MINX:91.018
;MINY:91.018
;MINZ:0.2
;MAXX:128.982
;MAXY:128.982
;MAXZ:50
;Generated with Cura_SteamEngine 4.4.1
M140 S60
M105
M190 S60
M104 S205
M105
M109 S205
M82 ;absolute extrusion mode
M201 X500.00 Y500.00 Z100.00 E5000.00 ;Setup machine max acceleration
M203 X500.00 Y500.00 Z10.00 E50.00 ;Setup machine max feedrate
M204 P500.00 R1000.00 T500.00 ;Setup Print/Retract/Travel acceleration
M205 X8.00 Y8.00 Z0.40 E5.00 ;Setup Jerk
M220 S100 ;Reset Feedrate
M221 S100 ;Reset Flowrate

G28 ;Home

G92 E0 ;Reset Extruder
G1 Z2.0 F3000 ;Move Z Axis up
G1 X10.1 Y20 Z0.28 F5000.0 ;Move to start position
G1 X10.1 Y200.0 Z0.28 F1500.0 E15 ;Draw the first line
G1 X10.4 Y200.0 Z0.28 F5000.0 ;Move to side a little
G1 X10.4 Y20 Z0.28 F1500.0 E30 ;Draw the second line
G92 E0 ;Reset Extruder
G1 Z2.0 F3000 ;Move Z Axis up

G92 E0
G92 E0
G1 F1500 E-6
;LAYER_COUNT:250
;LAYER:0
M107
M204 S500
M205 X20 Y20
G0 F6000 X96.448 Y96.709 Z0.2
;TYPE:SKIRT
G1 F1500 E0
G1 X97.204 Y95.98 E0.03493
G1 X97.777 Y95.478 E0.06027
G1 X98.563 Y94.851 E0.09371
G1 X99.14 Y94.432 E0.11743
G1 X100.001 Y93.866 E0.1517
G1 X100.655 Y93.479 E0.17697
G1 X101.526 Y93.015 E0.2098
G1 X102.162 Y92.712 E0.23323
G1 X103.117 Y92.311 E0.26768
G1 X103.864 Y92.038 E0.29413
G1 X104.859 Y91.727 E0.3288
G1 X105.525 Y91.553 E0.3517
G1 X106.461 Y91.352 E0.38354
G1 X107.178 Y91.23 E0.40773
G1 X108.198 Y91.105 E0.44191
G1 X108.969 Y91.047 E0.46762
G1 X110.009 Y91.018 E0.50223
G1 X110.724 Y91.032 E0.52601
G1 X111.72 Y91.097 E0.55921
G1 X112.451 Y91.178 E0.58367
G1 X113.455 Y91.336 E0.61748
G1 X114.204 Y91.49 E0.64291
G1 X115.225 Y91.752 E0.67797
G1 X115.93 Y91.969 E0.7025
G1 X116.876 Y92.308 E0.73593
G1 X117.562 Y92.59 E0.7606
G1 X118.481 Y93.018 E0.79431
G1 X119.1 Y93.342 E0.81755
G1 X119.951 Y93.837 E0.8503
G1 X120.596 Y94.252 E0.87581
G1 X121.437 Y94.851 E0.91015
G1 X122 Y95.293 E0.93395
G1 X122.752 Y95.94 E0.96695
G1 X123.291 Y96.448 E0.99158
G1 X124.02 Y97.204 E1.02651
G1 X124.515 Y97.769 E1.0515
G1 X125.133 Y98.543 E1.08444
G1 X125.559 Y99.128 E1.10851
G1 X126.134 Y100.001 E1.14328
G1 X126.521 Y100.655 E1.16855
G1 X126.985 Y101.526 E1.20138
G1 X127.288 Y102.162 E1.22481
G1 X127.689 Y103.117 E1.25926
G1 X127.962 Y103.864 E1.28571
G1 X128.273 Y104.859 E1.32038
G1 X128.447 Y105.525 E1.34328
G1 X128.648 Y106.461 E1.37512
G1 X128.77 Y107.178 E1.39931
G1 X128.895 Y108.198 E1.43349
G1 X128.953 Y108.969 E1.45921
G1 X128.982 Y110.009 E1.49381
G1 X128.968 Y110.724 E1.5176
G1 X128.904 Y111.712 E1.55053
G1 X128.825 Y112.43 E1.57455
G1 X128.667 Y113.433 E1.60832
G1 X128.511 Y114.195 E1.63419
G1 X128.25 Y115.219 E1.66934
G1 X128.035 Y115.919 E1.69369
G1 X127.694 Y116.871 E1.72733
G1 X127.41 Y117.562 E1.75218
G1 X126.982 Y118.481 E1.78589
G1 X126.658 Y119.1 E1.80913
G1 X126.163 Y119.951 E1.84188
G1 X125.748 Y120.596 E1.86739
G1 X125.149 Y121.437 E1.90173
G1 X124.707 Y122 E1.92553
G1 X124.06 Y122.752 E1.95853
G1 X123.552 Y123.291 E1.98316
G1 X122.798 Y124.018 E2.018
G1 X122.231 Y124.515 E2.04308
G1 X121.45 Y125.139 E2.07633
G1 X120.867 Y125.563 E2.1003
G1 X119.999 Y126.134 E2.13486
G1 X119.345 Y126.521 E2.16014
G1 X118.474 Y126.985 E2.19296
G1 X117.838 Y127.288 E2.21639
G1 X116.883 Y127.689 E2.25084
G1 X116.136 Y127.962 E2.27729
G1 X115.141 Y128.273 E2.31197
G1 X114.475 Y128.447 E2.33486
G1 X113.539 Y128.648 E2.3667
G1 X112.822 Y128.77 E2.39089
G1 X111.802 Y128.895 E2.42507
G1 X111.031 Y128.953 E2.45079
G1 X109.991 Y128.982 E2.48539
G1 X109.276 Y128.968 E2.50918
G1 X108.28 Y128.903 E2.54237
G1 X107.549 Y128.822 E2.56684
G1 X106.545 Y128.664 E2.60064
G1 X105.796 Y128.51 E2.62607
G1 X104.775 Y128.248 E2.66113
G1 X104.07 Y128.031 E2.68567
G1 X103.124 Y127.692 E2.71909
G1 X102.438 Y127.41 E2.74376
G1 X101.519 Y126.982 E2.77748
G1 X100.9 Y126.658 E2.80071
G1 X100.045 Y126.16 E2.83362
G1 X99.396 Y125.742 E2.8593
G1 X98.563 Y125.149 E2.89331
G1 X97.997 Y124.705 E2.91724
G1 X97.229 Y124.043 E2.95096
G1 X96.697 Y123.54 E2.97531
G1 X95.982 Y122.798 E3.00958
G1 X95.485 Y122.231 E3.03466
G1 X94.861 Y121.45 E3.06791
G1 X94.437 Y120.867 E3.09189
G1 X93.866 Y119.999 E3.12644
G1 X93.479 Y119.345 E3.15172
G1 X93.015 Y118.474 E3.18454
G1 X92.712 Y117.838 E3.20797
G1 X92.311 Y116.883 E3.24242
G1 X92.038 Y116.136 E3.26888
G1 X91.727 Y115.141 E3.30355
G1 X91.553 Y114.475 E3.32644
G1 X91.352 Y113.539 E3.35828
G1 X91.23 Y112.822 E3.38247
G1 X91.105 Y111.802 E3.41665
G1 X91.047 Y111.031 E3.44237
G1 X91.018 Y109.991 E3.47697
G1 X91.032 Y109.276 E3.50076
G1 X91.097 Y108.28 E3.53396
G1 X91.178 Y107.549 E3.55842
G1 X91.339 Y106.533 E3.59263
G1 X91.498 Y105.764 E3.61875
G1 X91.762 Y104.739 E3.65395
G1 X91.974 Y104.054 E3.6778
G1 X92.308 Y103.124 E3.71067
G1 X92.59 Y102.438 E3.73534
G1 X93.021 Y101.514 E3.76925
G1 X93.348 Y100.89 E3.79268
G1 X93.842 Y100.042 E3.82532
G1 X94.254 Y99.402 E3.85064
G1 X94.851 Y98.563 E3.88489
G1 X95.293 Y98 E3.90869
G1 X95.901 Y97.293 E3.93971
G0 F1350 X95.94 Y97.248
G0 X96.448 Y96.709
G0 F6000 X96.739 Y96.984
G1 F1500 X97.468 Y96.281 E3.97339
G1 X98.041 Y95.779 E3.99873
G1 X98.798 Y95.175 E4.03094
G1 X99.375 Y94.756 E4.05466
G1 X100.205 Y94.211 E4.08768
G1 X100.859 Y93.824 E4.11296
G1 X101.698 Y93.377 E4.14458
G1 X102.334 Y93.074 E4.16801
G1 X103.254 Y92.687 E4.2012
G1 X104.001 Y92.414 E4.22766
G1 X104.961 Y92.114 E4.26111
G1 X105.627 Y91.94 E4.284
G1 X106.528 Y91.746 E4.31466
G1 X107.245 Y91.624 E4.33885
G1 X108.228 Y91.504 E4.37179
G1 X108.999 Y91.446 E4.3975
G1 X110.002 Y91.418 E4.43088
G1 X110.717 Y91.432 E4.45466
G1 X111.676 Y91.494 E4.48662
G1 X112.407 Y91.575 E4.51109
G1 X113.375 Y91.728 E4.54368
G1 X114.124 Y91.882 E4.56911
G1 X115.107 Y92.134 E4.60287
G1 X115.812 Y92.351 E4.6274
G1 X116.724 Y92.678 E4.65962
G1 X117.41 Y92.96 E4.68429
G1 X118.296 Y93.373 E4.71681
G1 X118.915 Y93.697 E4.74004
G1 X119.735 Y94.174 E4.7716
G1 X120.38 Y94.589 E4.79711
G1 X121.19 Y95.165 E4.83016
G1 X121.753 Y95.607 E4.85397
G1 X122.477 Y96.231 E4.88576
G1 X123.016 Y96.739 E4.9104
G1 X123.719 Y97.468 E4.94408
G1 X124.214 Y98.033 E4.96906
G1 X124.81 Y98.778 E5.0008
G1 X125.236 Y99.363 E5.02486
G1 X125.789 Y100.205 E5.05837
G1 X126.176 Y100.859 E5.08365
G1 X126.623 Y101.698 E5.11526
G1 X126.926 Y102.334 E5.1387
G1 X127.313 Y103.254 E5.17189
G1 X127.586 Y104.001 E5.19834
G1 X127.886 Y104.961 E5.2318
G1 X128.06 Y105.627 E5.25469
G1 X128.254 Y106.528 E5.28535
G1 X128.376 Y107.245 E5.30954
G1 X128.496 Y108.228 E5.34247
G1 X128.554 Y108.999 E5.36819
G1 X128.582 Y110.002 E5.40156
G1 X128.568 Y110.717 E5.42535
G1 X128.506 Y111.668 E5.45705
G1 X128.427 Y112.386 E5.48107
G1 X128.276 Y113.353 E5.51362
G1 X128.12 Y114.115 E5.53949
G1 X127.868 Y115.101 E5.57334
G1 X127.653 Y115.801 E5.5977
G1 X127.324 Y116.719 E5.63013
G1 X127.04 Y117.41 E5.65498
G1 X126.627 Y118.296 E5.68749
G1 X126.303 Y118.915 E5.71073
G1 X125.826 Y119.735 E5.74228
G1 X125.411 Y120.38 E5.76779
G1 X124.835 Y121.19 E5.80085
G1 X124.393 Y121.753 E5.82466
G1 X123.769 Y122.477 E5.85645
G1 X123.261 Y123.016 E5.88108
G1 X122.534 Y123.717 E5.91467
G1 X121.967 Y124.214 E5.93975
G1 X121.215 Y124.816 E5.97179
G1 X120.632 Y125.24 E5.99576
G1 X119.795 Y125.789 E6.02906
G1 X119.141 Y126.176 E6.05433
G1 X118.302 Y126.623 E6.08595
G1 X117.666 Y126.926 E6.10938
G1 X116.746 Y127.313 E6.14258
G1 X115.999 Y127.586 E6.16903
G1 X115.039 Y127.886 E6.20248
G1 X114.373 Y128.06 E6.22538
G1 X113.472 Y128.254 E6.25603
G1 X112.755 Y128.376 E6.28022
G1 X111.772 Y128.496 E6.31316
G1 X111.001 Y128.554 E6.33888
G1 X109.998 Y128.582 E6.37225
G1 X109.283 Y128.568 E6.39603
G1 X108.324 Y128.506 E6.428
G1 X107.593 Y128.425 E6.45246
G1 X106.625 Y128.272 E6.48505
G1 X105.876 Y128.118 E6.51049
G1 X104.893 Y127.866 E6.54424
G1 X104.188 Y127.649 E6.56877
G1 X103.276 Y127.322 E6.601
G1 X102.59 Y127.04 E6.62567
G1 X101.704 Y126.627 E6.65818
G1 X101.085 Y126.303 E6.68142
G1 X100.261 Y125.824 E6.71312
G1 X99.612 Y125.406 E6.73879
G1 X98.81 Y124.834 E6.77156
G1 X98.244 Y124.39 E6.79548
G1 X97.504 Y123.752 E6.82798
G1 X96.972 Y123.249 E6.85233
G1 X96.283 Y122.534 E6.88536
G1 X95.786 Y121.967 E6.91044
G1 X95.184 Y121.215 E6.94247
G1 X94.76 Y120.632 E6.96645
G1 X94.211 Y119.795 E6.99974
G1 X93.824 Y119.141 E7.02502
G1 X93.377 Y118.302 E7.05664
G1 X93.074 Y117.666 E7.08007
G1 X92.687 Y116.746 E7.11327
G1 X92.414 Y115.999 E7.13972
G1 X92.114 Y115.039 E7.17317
G1 X91.94 Y114.373 E7.19607
G1 X91.746 Y113.472 E7.22672
G1 X91.624 Y112.755 E7.25091
G1 X91.504 Y111.772 E7.28385
G1 X91.446 Y111.001 E7.30956
G1 X91.418 Y109.998 E7.34294
G1 X91.432 Y109.283 E7.36672
G1 X91.494 Y108.324 E7.39868
G1 X91.575 Y107.593 E7.42315
G1 X91.731 Y106.614 E7.45612
G1 X91.89 Y105.845 E7.48224
G1 X92.144 Y104.857 E7.51617
G1 X92.356 Y104.172 E7.54002
G1 X92.678 Y103.276 E7.57168
G1 X92.96 Y102.59 E7.59635
G1 X93.375 Y101.7 E7.62901
G1 X93.702 Y101.076 E7.65244
G1 X94.178 Y100.258 E7.68392
G1 X94.59 Y99.618 E7.70924
G1 X95.165 Y98.81 E7.74222
G1 X95.607 Y98.247 E7.76603
G1 X96.192 Y97.568 E7.79584
G0 F1350 X96.231 Y97.523
G0 X96.739 Y96.984
G0 F6000 X97.03 Y97.258
G1 F1500 X97.732 Y96.582 E7.82825
G1 X98.305 Y96.08 E7.85359
G1 X99.033 Y95.499 E7.88457
G1 X99.61 Y95.08 E7.90829
G1 X100.409 Y94.555 E7.94009
G1 X101.063 Y94.168 E7.96536
G1 X101.87 Y93.738 E7.99577
G1 X102.506 Y93.435 E8.01921
G1 X103.392 Y93.063 E8.05117
G1 X104.139 Y92.79 E8.07762
G1 X105.062 Y92.501 E8.10979
G1 X105.728 Y92.327 E8.13268
G1 X106.595 Y92.141 E8.16217
G1 X107.312 Y92.019 E8.18637
G1 X108.258 Y91.903 E8.21806
G1 X109.029 Y91.845 E8.24378
G1 X109.994 Y91.818 E8.27589
G1 X110.709 Y91.832 E8.29968
G1 X111.632 Y91.892 E8.33044
G1 X112.363 Y91.973 E8.3549
G1 X113.294 Y92.12 E8.38625
G1 X114.043 Y92.274 E8.41168
G1 X114.99 Y92.516 E8.44419
G1 X115.695 Y92.733 E8.46873
G1 X116.572 Y93.048 E8.49972
G1 X117.258 Y93.33 E8.52439
G1 X118.11 Y93.727 E8.55565
G1 X118.729 Y94.051 E8.57889
G1 X119.518 Y94.51 E8.60925
G1 X120.163 Y94.925 E8.63476
G1 X120.943 Y95.48 E8.6666
G1 X121.506 Y95.922 E8.69041
G1 X122.203 Y96.522 E8.72099
G1 X122.742 Y97.03 E8.74563
G1 X123.418 Y97.731 E8.77802
G1 X123.913 Y98.296 E8.803
G1 X124.486 Y99.014 E8.83356
G1 X124.912 Y99.599 E8.85763
G1 X125.445 Y100.409 E8.88988
G1 X125.832 Y101.063 E8.91515
G1 X126.262 Y101.87 E8.94556
G1 X126.565 Y102.506 E8.969
G1 X126.937 Y103.392 E9.00096
G1 X127.21 Y104.139 E9.02741
G1 X127.499 Y105.062 E9.05958
G1 X127.673 Y105.728 E9.08247
G1 X127.859 Y106.595 E9.11197
G1 X127.981 Y107.312 E9.13616
G1 X128.097 Y108.258 E9.16786
G1 X128.155 Y109.029 E9.19357
G1 X128.182 Y109.994 E9.22568
G1 X128.168 Y110.709 E9.24947
G1 X128.109 Y111.625 E9.28
G1 X128.03 Y112.343 E9.30402
G1 X127.884 Y113.273 E9.33533
G1 X127.728 Y114.035 E9.3612
G1 X127.485 Y114.984 E9.39378
G1 X127.27 Y115.684 E9.41814
G1 X126.954 Y116.566 E9.4493
G1 X126.67 Y117.257 E9.47415
G1 X126.273 Y118.11 E9.50544
G1 X125.949 Y118.729 E9.52868
G1 X125.49 Y119.518 E9.55904
G1 X125.075 Y120.163 E9.58455
G1 X124.52 Y120.943 E9.61639
G1 X124.078 Y121.506 E9.6402
G1 X123.478 Y122.203 E9.67078
G1 X122.97 Y122.742 E9.69542
G1 X122.27 Y123.416 E9.72774
G1 X121.703 Y123.913 E9.75282
G1 X120.979 Y124.492 E9.78365
G1 X120.396 Y124.916 E9.80763
G1 X119.591 Y125.445 E9.83966
G1 X118.937 Y125.832 E9.86494
G1 X118.13 Y126.262 E9.89535
G1 X117.494 Y126.565 E9.91878
G1 X116.608 Y126.937 E9.95075
G1 X115.861 Y127.21 E9.9772
G1 X114.938 Y127.499 E10.00937
G1 X114.272 Y127.673 E10.03226
G1 X113.405 Y127.859 E10.06175
G1 X112.688 Y127.981 E10.08594
G1 X111.742 Y128.097 E10.11764
G1 X110.971 Y128.155 E10.14336
G1 X110.006 Y128.182 E10.17547
G1 X109.291 Y128.168 E10.19925
G1 X108.368 Y128.108 E10.23002
G1 X107.637 Y128.027 E10.25448
G1 X106.706 Y127.88 E10.28583
G1 X105.957 Y127.726 E10.31126
G1 X105.01 Y127.484 E10.34377
G1 X104.305 Y127.267 E10.36831
G1 X103.428 Y126.952 E10.3993
G1 X102.742 Y126.67 E10.42397
G1 X101.89 Y126.273 E10.45523
G1 X101.271 Y125.949 E10.47847
G1 X100.478 Y125.487 E10.50899
G1 X99.829 Y125.069 E10.53467
G1 X99.056 Y124.519 E10.56622
G1 X98.49 Y124.075 E10.59015
G1 X97.778 Y123.462 E10.6214
G1 X97.246 Y122.959 E10.64575
G1 X96.584 Y122.27 E10.67753
G1 X96.087 Y121.703 E10.70261
G1 X95.508 Y120.979 E10.73344
G1 X95.084 Y120.396 E10.75742
G1 X94.555 Y119.591 E10.78946
G1 X94.168 Y118.937 E10.81473
G1 X93.738 Y118.13 E10.84514
G1 X93.435 Y117.494 E10.86858
G1 X93.063 Y116.608 E10.90054
G1 X92.79 Y115.861 E10.92699
G1 X92.501 Y114.938 E10.95916
G1 X92.327 Y114.272 E10.98205
G1 X92.141 Y113.405 E11.01154
G1 X92.019 Y112.688 E11.03573
G1 X91.903 Y111.742 E11.06743
G1 X91.845 Y110.971 E11.09315
G1 X91.818 Y110.006 E11.12526
G1 X91.832 Y109.291 E11.14904
G1 X91.892 Y108.368 E11.17981
G1 X91.973 Y107.637 E11.20427
G1 X92.122 Y106.695 E11.23599
G1 X92.281 Y105.926 E11.26211
G1 X92.526 Y104.975 E11.29477
G1 X92.738 Y104.29 E11.31862
G1 X93.048 Y103.428 E11.34909
G1 X93.33 Y102.742 E11.37376
G1 X93.729 Y101.886 E11.40517
G1 X94.056 Y101.262 E11.4286
G1 X94.514 Y100.475 E11.45889
G1 X94.926 Y99.835 E11.4842
G1 X95.48 Y99.057 E11.51597
G1 X95.922 Y98.494 E11.53978
G1 X96.483 Y97.842 E11.56838
G0 F1350 X96.522 Y97.797
G0 X97.03 Y97.258
G1 F1500 E5.56838
;MESH:spool v13.stl
G0 F6000 X105.788 Y115.59
;TYPE:WALL-INNER
G1 F1500 E11.56838
G1 F1080 X105.279 Y115.167 E11.5904
G1 X104.833 Y114.721 E11.61138
G1 X104.41 Y114.212 E11.63339
G1 X104.047 Y113.682 E11.65475
G1 X103.74 Y113.129 E11.67579
G1 X103.47 Y112.521 E11.69792
G1 X103.267 Y111.913 E11.71924
G1 X103.119 Y111.281 E11.74083
G1 X103.032 Y110.662 E11.76162
G1 X103.002 Y110 E11.78366
G1 X103.032 Y109.338 E11.8057
G1 X103.119 Y108.719 E11.82649
G1 X103.267 Y108.087 E11.84808
G1 X103.47 Y107.479 E11.8694
G1 X103.74 Y106.871 E11.89152
G1 X104.047 Y106.318 E11.91256
G1 X104.41 Y105.788 E11.93393
G1 X104.833 Y105.279 E11.95594
G1 X105.279 Y104.833 E11.97692
G1 X105.788 Y104.41 E11.99893
G1 X106.318 Y104.047 E12.0203
G1 X106.871 Y103.74 E12.04133
G1 X107.479 Y103.47 E12.06346
G1 X108.085 Y103.268 E12.08471
G1 X108.717 Y103.119 E12.1063
G1 X109.339 Y103.032 E12.12719
G1 X110 Y103.002 E12.1492
G1 X110.661 Y103.032 E12.17121
G1 X111.283 Y103.119 E12.1921
G1 X111.915 Y103.268 E12.21369
G1 X112.521 Y103.47 E12.23494
G1 X113.129 Y103.74 E12.25706
G1 X113.682 Y104.047 E12.2781
G1 X114.212 Y104.41 E12.29947
G1 X114.721 Y104.833 E12.32148
G1 X115.167 Y105.279 E12.34246
G1 X115.59 Y105.788 E12.36447
G1 X115.953 Y106.318 E12.38584
G1 X116.26 Y106.871 E12.40687
G1 X116.53 Y107.479 E12.429
G1 X116.733 Y108.087 E12.45032
G1 X116.881 Y108.719 E12.47191
G1 X116.968 Y109.338 E12.4927
G1 X116.998 Y110 E12.51474
G1 X116.968 Y110.662 E12.53678
G1 X116.881 Y111.281 E12.55757
G1 X116.733 Y111.913 E12.57916
G1 X116.53 Y112.521 E12.60048
G1 X116.26 Y113.129 E12.62261
G1 X115.953 Y113.682 E12.64364
G1 X115.59 Y114.212 E12.66501
G1 X115.167 Y114.721 E12.68702
G1 X114.721 Y115.167 E12.708
G1 X114.212 Y115.59 E12.73001
G1 X113.682 Y115.953 E12.75138
G1 X113.129 Y116.26 E12.77242
G1 X112.521 Y116.53 E12.79454
G1 X111.915 Y116.732 E12.81579
G1 X111.283 Y116.881 E12.83739
G1 X110.661 Y116.968 E12.85827
G1 X110 Y116.998 E12.88028
G1 X109.339 Y116.968 E12.90229
G1 X108.717 Y116.881 E12.92318
G1 X108.085 Y116.732 E12.94478
G1 X107.479 Y116.53 E12.96602
G1 X106.871 Y116.26 E12.98815
G1 X106.456 Y116.029 E13.00394
G0 F972 X106.318 Y115.953
G0 X105.788 Y115.59
G0 F6000 X105.542 Y115.906
G1 F1080 X105.011 Y115.465 E13.0269
G1 X104.535 Y114.989 E13.04929
G1 X104.094 Y114.458 E13.07225
G1 X103.708 Y113.894 E13.09498
G1 X103.379 Y113.303 E13.11748
G1 X103.099 Y112.671 E13.14047
G1 X102.883 Y112.024 E13.16316
