;FLAVOR:Marlin
;TIME:2039
;Filament used: 0.841803m
;Layer height: 0.2
;MINX:56.394
;MINY:18.783
;MINZ:0.2
;MAXX:94.356
;MAXY:56.746
;MAXZ:50
;Generated with Cura_SteamEngine 4.4.1
M140 S60
M105
M190 S60
M104 S205
M105
M109 S205
M82 ;absolute extrusion mode
M201 X500.00 Y500.00 Z100.00 E5000.00 ;Setup machine max acceleration
M203 X500.00 Y500.00 Z10.00 E50.00 ;Setup machine max feedrate
M204 P500.00 R1000.00 T500.00 ;Setup Print/Retract/Travel acceleration
M205 X8.00 Y8.00 Z0.40 E5.00 ;Setup Jerk
M220 S100 ;Reset Feedrate
M221 S100 ;Reset Flowrate

G28 ;Home

G92 E0 ;Reset Extruder
G1 Z2.0 F3000 ;Move Z Axis up
G1 X10.1 Y20 Z0.28 F5000.0 ;Move to start position
G1 X10.1 Y200.0 Z0.28 F1500.0 E15 ;Draw the first line
G1 X10.4 Y200.0 Z0.28 F5000.0 ;Move to side a little
G1 X10.4 Y20 Z0.28 F1500.0 E30 ;Draw the second line
G92 E0 ;Reset Extruder
G1 Z2.0 F3000 ;Move Z Axis up

G92 E0
G92 E0
G1 F1500 E-6
;LAYER_COUNT:250
;LAYER:0
M107
M204 S500
M205 X20 Y20
G0 F6000 X58.368 Y29.338 Z0.2
;TYPE:SKIRT
G1 F1500 E0
G1 X58.724 Y28.654 E0.02565
G1 X59.233 Y27.778 E0.05934
G1 X59.607 Y27.197 E0.08233
G1 X60.195 Y26.369 E0.1161
G1 X60.675 Y25.756 E0.142
G1 X61.376 Y24.946 E0.17763
G1 X61.911 Y24.385 E0.20341
G1 X62.623 Y23.703 E0.2362
G1 X63.107 Y23.279 E0.2576
G1 X63.861 Y22.675 E0.28974
G1 X64.494 Y22.212 E0.31582
G1 X65.394 Y21.618 E0.35169
G1 X66.029 Y21.243 E0.37621
G1 X66.872 Y20.794 E0.40798
G1 X67.488 Y20.499 E0.4307
G1 X68.412 Y20.107 E0.46408
G1 X69.145 Y19.835 E0.49009
G1 X70.17 Y19.511 E0.52584
G1 X70.918 Y19.314 E0.55157
G1 X71.919 Y19.099 E0.58562
G1 X72.612 Y18.984 E0.60898
G1 X73.615 Y18.865 E0.64258
G1 X74.371 Y18.81 E0.66779
G1 X75.368 Y18.783 E0.70096
G1 X76.085 Y18.796 E0.72481
G1 X77.099 Y18.861 E0.75861
G1 X77.829 Y18.942 E0.78304
G1 X78.831 Y19.1 E0.81678
G1 X79.58 Y19.254 E0.84221
G1 X80.592 Y19.513 E0.87695
G1 X81.286 Y19.726 E0.9011
G1 X82.244 Y20.069 E0.93494
G1 X82.932 Y20.352 E0.95969
G1 X83.819 Y20.764 E0.99221
G1 X84.431 Y21.082 E1.01515
G1 X85.295 Y21.582 E1.04836
G1 X85.955 Y22.005 E1.07443
G1 X86.812 Y22.614 E1.1094
G1 X87.361 Y23.045 E1.13261
G1 X88.092 Y23.673 E1.16466
G1 X88.622 Y24.17 E1.18883
G1 X89.354 Y24.925 E1.22381
G1 X89.884 Y25.527 E1.25048
G1 X90.543 Y26.353 E1.28563
G1 X90.96 Y26.93 E1.30931
G1 X91.473 Y27.706 E1.34025
G1 X91.827 Y28.295 E1.3631
G1 X92.33 Y29.233 E1.3985
G1 X92.69 Y29.989 E1.42635
G1 X93.103 Y30.976 E1.46194
G1 X93.336 Y31.62 E1.48472
G1 X93.627 Y32.553 E1.51722
G1 X93.814 Y33.261 E1.54158
G1 X94.023 Y34.225 E1.57439
G1 X94.145 Y34.942 E1.59858
G1 X94.267 Y35.928 E1.63162
G1 X94.324 Y36.656 E1.65591
G1 X94.356 Y37.722 E1.69138
G1 X94.341 Y38.518 E1.71786
G1 X94.272 Y39.556 E1.75246
G1 X94.194 Y40.241 E1.77539
G1 X94.041 Y41.203 E1.80779
G1 X93.886 Y41.96 E1.83349
G1 X93.623 Y42.989 E1.86881
G1 X93.406 Y43.694 E1.89335
G1 X93.072 Y44.629 E1.92637
G1 X92.804 Y45.283 E1.94988
G1 X92.387 Y46.181 E1.98281
G1 X92.037 Y46.855 E2.00807
G1 X91.527 Y47.736 E2.04193
G1 X91.154 Y48.316 E2.06486
G1 X90.574 Y49.134 E2.09821
G1 X90.087 Y49.758 E2.12454
G1 X89.375 Y50.582 E2.16076
G1 X88.84 Y51.143 E2.18655
G1 X88.128 Y51.825 E2.21934
G1 X87.644 Y52.249 E2.24074
G1 X86.89 Y52.853 E2.27287
G1 X86.257 Y53.316 E2.29896
G1 X85.357 Y53.91 E2.33482
G1 X84.722 Y54.285 E2.35935
G1 X83.879 Y54.734 E2.39112
G1 X83.263 Y55.029 E2.41383
G1 X82.339 Y55.421 E2.44722
G1 X81.606 Y55.693 E2.47322
G1 X80.602 Y56.012 E2.50826
G1 X79.894 Y56.2 E2.53262
G1 X78.914 Y56.413 E2.56598
G1 X78.196 Y56.535 E2.5902
G1 X77.178 Y56.659 E2.62431
G1 X76.407 Y56.717 E2.65003
G1 X75.366 Y56.746 E2.68467
G1 X74.654 Y56.732 E2.70835
G1 X73.665 Y56.668 E2.74131
G1 X72.921 Y56.586 E2.76621
G1 X71.923 Y56.429 E2.79981
G1 X71.238 Y56.289 E2.82307
G1 X70.247 Y56.038 E2.85707
G1 X69.466 Y55.801 E2.88421
G1 X68.447 Y55.436 E2.92021
G1 X67.791 Y55.164 E2.94383
G1 X66.932 Y54.764 E2.97535
G1 X66.32 Y54.446 E2.99829
G1 X65.456 Y53.946 E3.03149
G1 X64.796 Y53.523 E3.05756
G1 X63.933 Y52.909 E3.09279
G1 X63.376 Y52.471 E3.11636
G1 X62.643 Y51.84 E3.14853
G1 X62.113 Y51.342 E3.17272
G1 X61.386 Y50.592 E3.20746
G1 X60.859 Y49.993 E3.23399
G1 X60.192 Y49.156 E3.26959
G1 X59.78 Y48.584 E3.29304
G1 X59.278 Y47.822 E3.32339
G1 X58.924 Y47.233 E3.34624
G1 X58.421 Y46.295 E3.38164
G1 X58.061 Y45.539 E3.40949
G1 X57.648 Y44.552 E3.44508
G1 X57.415 Y43.908 E3.46786
G1 X57.124 Y42.975 E3.50036
G1 X56.937 Y42.267 E3.52472
G1 X56.728 Y41.303 E3.55753
G1 X56.606 Y40.586 E3.58172
G1 X56.481 Y39.566 E3.6159
G1 X56.423 Y38.795 E3.64161
G1 X56.394 Y37.755 E3.67622
G1 X56.408 Y37.04 E3.7
G1 X56.473 Y36.044 E3.7332
G1 X56.554 Y35.313 E3.75766
G1 X56.712 Y34.309 E3.79146
G1 X56.866 Y33.56 E3.8169
G1 X57.128 Y32.539 E3.85196
G1 X57.345 Y31.834 E3.87649
G1 X57.679 Y30.899 E3.90951
G1 X57.947 Y30.245 E3.93302
G1 X58.031 Y30.064 E3.93966
G0 F1350 X58.368 Y29.338
G0 F6000 X58.723 Y29.522
G1 F1500 X59.079 Y28.838 E3.9653
G1 X59.569 Y27.995 E3.99774
G1 X59.943 Y27.414 E4.02072
G1 X60.51 Y26.616 E4.05328
G1 X60.99 Y26.003 E4.07917
G1 X61.665 Y25.223 E4.11348
G1 X62.2 Y24.662 E4.13926
G1 X62.886 Y24.004 E4.17088
G1 X63.37 Y23.58 E4.19228
G1 X64.097 Y22.997 E4.22328
G1 X64.73 Y22.534 E4.24936
G1 X65.598 Y21.963 E4.28392
G1 X66.233 Y21.588 E4.30844
G1 X67.045 Y21.155 E4.33905
G1 X67.661 Y20.86 E4.36177
G1 X68.551 Y20.482 E4.39393
G1 X69.284 Y20.21 E4.41993
G1 X70.272 Y19.898 E4.45439
G1 X71.02 Y19.701 E4.48012
G1 X71.985 Y19.494 E4.51295
G1 X72.678 Y19.379 E4.53631
G1 X73.644 Y19.264 E4.56867
G1 X74.4 Y19.209 E4.59388
G1 X75.361 Y19.183 E4.62585
G1 X76.078 Y19.196 E4.6497
G1 X77.055 Y19.259 E4.68227
G1 X77.785 Y19.34 E4.7067
G1 X78.751 Y19.492 E4.73922
G1 X79.5 Y19.646 E4.76465
G1 X80.475 Y19.896 E4.79813
G1 X81.169 Y20.109 E4.82228
G1 X82.091 Y20.439 E4.85485
G1 X82.779 Y20.722 E4.87959
G1 X83.634 Y21.119 E4.91094
G1 X84.246 Y21.437 E4.93388
G1 X85.079 Y21.919 E4.96589
G1 X85.739 Y22.342 E4.99197
G1 X86.565 Y22.928 E5.02565
G1 X87.114 Y23.359 E5.04886
G1 X87.819 Y23.965 E5.07979
G1 X88.349 Y24.462 E5.10395
G1 X89.054 Y25.19 E5.13766
G1 X89.584 Y25.792 E5.16433
G1 X90.219 Y26.587 E5.19818
G1 X90.636 Y27.164 E5.22185
G1 X91.13 Y27.913 E5.2517
G1 X91.484 Y28.502 E5.27455
G1 X91.969 Y29.405 E5.30864
G1 X92.329 Y30.161 E5.33649
G1 X92.727 Y31.112 E5.37078
G1 X92.96 Y31.756 E5.39356
G1 X93.241 Y32.655 E5.42489
G1 X93.428 Y33.363 E5.44924
G1 X93.629 Y34.292 E5.48086
G1 X93.751 Y35.009 E5.50505
G1 X93.869 Y35.96 E5.53692
G1 X93.926 Y36.688 E5.56121
G1 X93.956 Y37.715 E5.59538
G1 X93.941 Y38.511 E5.62186
G1 X93.875 Y39.51 E5.65516
G1 X93.797 Y40.195 E5.67809
G1 X93.65 Y41.122 E5.70931
G1 X93.495 Y41.879 E5.73501
G1 X93.241 Y42.871 E5.76907
G1 X93.024 Y43.576 E5.7936
G1 X92.701 Y44.477 E5.82544
G1 X92.433 Y45.131 E5.84894
G1 X92.032 Y45.997 E5.88068
G1 X91.682 Y46.671 E5.90594
G1 X91.19 Y47.52 E5.93858
G1 X90.817 Y48.1 E5.96152
G1 X90.258 Y48.888 E5.99365
G1 X89.771 Y49.512 E6.01998
G1 X89.086 Y50.305 E6.05483
G1 X88.551 Y50.866 E6.08061
G1 X87.865 Y51.524 E6.11223
G1 X87.381 Y51.948 E6.13363
G1 X86.654 Y52.531 E6.16463
G1 X86.021 Y52.994 E6.19071
G1 X85.153 Y53.565 E6.22527
G1 X84.518 Y53.94 E6.24979
G1 X83.706 Y54.373 E6.2804
G1 X83.09 Y54.668 E6.30312
G1 X82.2 Y55.046 E6.33528
G1 X81.467 Y55.318 E6.36128
G1 X80.499 Y55.625 E6.39506
G1 X79.791 Y55.813 E6.41942
G1 X78.847 Y56.018 E6.45155
G1 X78.129 Y56.14 E6.47578
G1 X77.148 Y56.26 E6.50865
G1 X76.377 Y56.318 E6.53436
G1 X75.374 Y56.346 E6.56774
G1 X74.662 Y56.332 E6.59142
G1 X73.709 Y56.27 E6.62319
G1 X72.965 Y56.188 E6.64808
G1 X72.003 Y56.037 E6.68047
G1 X71.318 Y55.897 E6.70372
G1 X70.363 Y55.655 E6.73649
G1 X69.582 Y55.418 E6.76364
G1 X68.6 Y55.067 E6.79832
G1 X67.944 Y54.795 E6.82194
G1 X67.117 Y54.409 E6.8523
G1 X66.505 Y54.091 E6.87524
G1 X65.672 Y53.609 E6.90725
G1 X65.012 Y53.186 E6.93332
G1 X64.18 Y52.594 E6.96728
G1 X63.623 Y52.156 E6.99085
G1 X62.917 Y51.549 E7.02182
G1 X62.387 Y51.051 E7.046
G1 X61.687 Y50.328 E7.07948
G1 X61.16 Y49.729 E7.10601
G1 X60.517 Y48.922 E7.14033
G1 X60.105 Y48.35 E7.16378
G1 X59.621 Y47.615 E7.19305
G1 X59.267 Y47.026 E7.2159
G1 X58.782 Y46.123 E7.25
G1 X58.422 Y45.367 E7.27785
G1 X58.024 Y44.416 E7.31213
G1 X57.791 Y43.772 E7.33491
G1 X57.51 Y42.873 E7.36624
G1 X57.323 Y42.165 E7.3906
G1 X57.122 Y41.236 E7.42221
G1 X57 Y40.519 E7.4464
G1 X56.88 Y39.536 E7.47934
G1 X56.822 Y38.765 E7.50505
G1 X56.794 Y37.762 E7.53843
G1 X56.808 Y37.047 E7.56221
G1 X56.87 Y36.088 E7.59417
G1 X56.951 Y35.357 E7.61864
G1 X57.104 Y34.389 E7.65123
G1 X57.258 Y33.64 E7.67667
G1 X57.51 Y32.657 E7.71042
G1 X57.727 Y31.952 E7.73495
G1 X58.05 Y31.051 E7.76679
G1 X58.318 Y30.397 E7.79029
G1 X58.387 Y30.248 E7.79575
G0 F1350 X58.723 Y29.522
G0 F6000 X59.078 Y29.707
G1 F1500 X59.434 Y29.023 E7.8214
G1 X59.905 Y28.211 E7.85262
G1 X60.279 Y27.63 E7.87561
G1 X60.825 Y26.863 E7.90692
G1 X61.305 Y26.25 E7.93281
G1 X61.954 Y25.499 E7.96583
G1 X62.489 Y24.938 E7.99161
G1 X63.15 Y24.305 E8.02205
G1 X63.634 Y23.881 E8.04345
G1 X64.333 Y23.32 E8.07326
G1 X64.966 Y22.857 E8.09935
G1 X65.801 Y22.307 E8.1326
G1 X66.436 Y21.932 E8.15713
G1 X67.217 Y21.516 E8.18656
G1 X67.833 Y21.221 E8.20928
G1 X68.69 Y20.857 E8.24025
G1 X69.423 Y20.585 E8.26625
G1 X70.374 Y20.284 E8.29943
G1 X71.122 Y20.087 E8.32516
G1 X72.05 Y19.889 E8.35672
G1 X72.743 Y19.774 E8.38008
G1 X73.673 Y19.663 E8.41123
G1 X74.429 Y19.608 E8.43644
G1 X75.354 Y19.583 E8.46722
G1 X76.071 Y19.596 E8.49107
G1 X77.011 Y19.656 E8.5224
G1 X77.741 Y19.737 E8.54683
G1 X78.67 Y19.884 E8.57811
G1 X79.419 Y20.038 E8.60354
G1 X80.358 Y20.278 E8.63578
G1 X81.052 Y20.491 E8.65992
G1 X81.939 Y20.809 E8.69126
G1 X82.627 Y21.092 E8.71601
G1 X83.45 Y21.474 E8.74619
G1 X84.062 Y21.792 E8.76913
G1 X84.863 Y22.255 E8.7999
G1 X85.523 Y22.678 E8.82597
G1 X86.318 Y23.243 E8.85841
G1 X86.867 Y23.674 E8.88162
G1 X87.545 Y24.257 E8.91136
G1 X88.075 Y24.754 E8.93553
G1 X88.754 Y25.454 E8.96797
G1 X89.284 Y26.056 E8.99464
G1 X89.895 Y26.821 E9.02721
G1 X90.312 Y27.398 E9.05089
G1 X90.787 Y28.119 E9.0796
G1 X91.141 Y28.708 E9.10246
G1 X91.608 Y29.577 E9.13527
G1 X91.968 Y30.333 E9.16312
G1 X92.351 Y31.248 E9.19611
G1 X92.584 Y31.892 E9.21889
G1 X92.854 Y32.757 E9.24903
G1 X93.041 Y33.465 E9.27339
G1 X93.234 Y34.359 E9.3038
G1 X93.356 Y35.076 E9.32799
G1 X93.47 Y35.991 E9.35866
G1 X93.527 Y36.719 E9.38295
G1 X93.556 Y37.707 E9.41583
G1 X93.541 Y38.503 E9.44231
G1 X93.478 Y39.465 E9.47437
G1 X93.4 Y40.15 E9.4973
G1 X93.258 Y41.042 E9.52734
G1 X93.103 Y41.799 E9.55304
G1 X92.859 Y42.754 E9.58583
G1 X92.642 Y43.459 E9.61036
G1 X92.331 Y44.326 E9.641
G1 X92.063 Y44.98 E9.6645
G1 X91.677 Y45.813 E9.69504
G1 X91.327 Y46.487 E9.7203
G1 X90.854 Y47.303 E9.75167
G1 X90.481 Y47.883 E9.77461
G1 X89.943 Y48.642 E9.80555
G1 X89.456 Y49.266 E9.83188
G1 X88.797 Y50.029 E9.86541
G1 X88.262 Y50.59 E9.89119
G1 X87.601 Y51.223 E9.92163
G1 X87.117 Y51.647 E9.94303
G1 X86.418 Y52.208 E9.97284
G1 X85.785 Y52.671 E9.99893
G1 X84.95 Y53.221 E10.03218
G1 X84.315 Y53.596 E10.05671
G1 X83.534 Y54.012 E10.08614
G1 X82.918 Y54.307 E10.10886
G1 X82.061 Y54.671 E10.13983
G1 X81.328 Y54.943 E10.16583
G1 X80.397 Y55.238 E10.19831
G1 X79.689 Y55.426 E10.22268
G1 X78.78 Y55.624 E10.25362
G1 X78.062 Y55.746 E10.27784
G1 X77.118 Y55.861 E10.30947
G1 X76.347 Y55.919 E10.33519
G1 X75.381 Y55.946 E10.36733
G1 X74.669 Y55.932 E10.39102
G1 X73.753 Y55.873 E10.42155
G1 X73.009 Y55.791 E10.44644
G1 X72.084 Y55.645 E10.47759
G1 X71.399 Y55.505 E10.50084
G1 X70.479 Y55.272 E10.53241
G1 X69.698 Y55.035 E10.55955
G1 X68.753 Y54.697 E10.59293
G1 X68.097 Y54.425 E10.61655
G1 X67.301 Y54.054 E10.64576
G1 X66.689 Y53.736 E10.6687
G1 X65.888 Y53.273 E10.69947
G1 X65.228 Y52.85 E10.72555
G1 X64.427 Y52.28 E10.75825
G1 X63.87 Y51.842 E10.78181
G1 X63.19 Y51.257 E10.81165
G1 X62.66 Y50.759 E10.83584
G1 X61.987 Y50.064 E10.86801
G1 X61.46 Y49.465 E10.89455
G1 X60.841 Y48.688 E10.92759
G1 X60.429 Y48.116 E10.95104
G1 X59.964 Y47.409 E10.97918
G1 X59.61 Y46.82 E11.00204
G1 X59.143 Y45.951 E11.03485
G1 X58.783 Y45.195 E11.0627
G1 X58.4 Y44.28 E11.09569
G1 X58.167 Y43.636 E11.11847
G1 X57.897 Y42.771 E11.14861
G1 X57.71 Y42.063 E11.17297
G1 X57.517 Y41.169 E11.20339
G1 X57.395 Y40.452 E11.22758
G1 X57.279 Y39.506 E11.25928
G1 X57.221 Y38.735 E11.28499
G1 X57.194 Y37.77 E11.3171
G1 X57.208 Y37.055 E11.34089
G1 X57.268 Y36.132 E11.37165
G1 X57.349 Y35.401 E11.39611
G1 X57.496 Y34.47 E11.42746
G1 X57.65 Y33.721 E11.45289
G1 X57.892 Y32.774 E11.4854
G1 X58.109 Y32.069 E11.50994
G1 X58.42 Y31.202 E11.54057
G1 X58.688 Y30.548 E11.56408
G1 X58.742 Y30.432 E11.56834
G0 F1350 X59.078 Y29.707
G1 F1500 E5.56834
;MESH:spool v10.stl
G0 F6000 X71.169 Y43.358
;TYPE:WALL-INNER
G1 F1500 E11.56834
G1 F1080 X70.656 Y42.931 E11.59054
G1 X70.203 Y42.479 E11.61182
G1 X69.785 Y41.976 E11.63357
G1 X69.426 Y41.45 E11.65475
G1 X69.114 Y40.889 E11.6761
G1 X68.846 Y40.285 E11.69808
G1 X68.643 Y39.677 E11.7194
G1 X68.495 Y39.045 E11.74099
G1 X68.408 Y38.426 E11.76178
G1 X68.378 Y37.764 E11.78382
G1 X68.408 Y37.102 E11.80586
G1 X68.495 Y36.483 E11.82665
G1 X68.643 Y35.851 E11.84824
G1 X68.848 Y35.238 E11.86974
G1 X69.114 Y34.639 E11.89154
G1 X69.426 Y34.078 E11.91289
G1 X69.785 Y33.552 E11.93407
G1 X70.203 Y33.049 E11.95582
G1 X70.656 Y32.597 E11.97711
G1 X71.169 Y32.17 E11.99931
G1 X71.686 Y31.817 E12.02013
G1 X72.255 Y31.501 E12.04178
G1 X72.855 Y31.234 E12.06362
G1 X73.462 Y31.031 E12.08491
G1 X74.089 Y30.884 E12.10633
G1 X74.715 Y30.796 E12.12735
G1 X75.376 Y30.766 E12.14936
G1 X76.037 Y30.796 E12.17137
G1 X76.659 Y30.883 E12.19226
G1 X77.291 Y31.032 E12.21385
G1 X77.896 Y31.234 E12.23507
G1 X78.496 Y31.501 E12.25691
G1 X79.065 Y31.817 E12.27856
G1 X79.582 Y32.17 E12.29938
G1 X80.095 Y32.597 E12.32158
G1 X80.548 Y33.049 E12.34286
G1 X80.966 Y33.552 E12.36462
G1 X81.325 Y34.078 E12.3858
G1 X81.637 Y34.639 E12.40715
G1 X81.903 Y35.238 E12.42895
G1 X82.108 Y35.851 E12.45045
G1 X82.256 Y36.483 E12.47203
G1 X82.343 Y37.102 E12.49282
G1 X82.374 Y37.764 E12.51487
G1 X82.343 Y38.426 E12.53691
G1 X82.256 Y39.045 E12.5577
G1 X82.108 Y39.677 E12.57929
G1 X81.905 Y40.285 E12.60061
G1 X81.637 Y40.889 E12.62259
G1 X81.325 Y41.45 E12.64394
G1 X80.966 Y41.976 E12.66512
G1 X80.548 Y42.479 E12.68687
G1 X80.095 Y42.931 E12.70815
G1 X79.582 Y43.358 E12.73035
G1 X79.065 Y43.711 E12.75118
G1 X78.496 Y44.027 E12.77282
G1 X77.896 Y44.294 E12.79467
G1 X77.291 Y44.496 E12.81588
G1 X76.659 Y44.645 E12.83748
G1 X76.037 Y44.732 E12.85837
G1 X75.376 Y44.762 E12.88037
G1 X74.715 Y44.732 E12.90238
G1 X74.089 Y44.644 E12.92341
G1 X73.462 Y44.497 E12.94483
G1 X72.855 Y44.294 E12.96611
G1 X72.255 Y44.027 E12.98796
G1 X71.838 Y43.795 E13.00383
G0 F972 X71.686 Y43.711
G0 X71.169 Y43.358
G0 F6000 X70.923 Y43.674
G1 F1080 X70.388 Y43.229 E13.02697
G1 X69.905 Y42.747 E13.04967
G1 X69.469 Y42.222 E13.07237
G1 X69.084 Y41.659 E13.09505
G1 X68.755 Y41.067 E13.11758
G1 X68.475 Y40.435 E13.14057
G1 X68.259 Y39.788 E13.16326
G1 X68.101 Y39.115 E13.18625
G1 X68.009 Y38.456 E13.20838
G1 X67.977 Y37.764 E13.23142
G1 X68.009 Y37.072 E13.25446
G1 X68.101 Y36.413 E13.27659
G1 X68.259 Y35.74 E13.29959
G1 X68.477 Y35.088 E13.32245
G1 X68.755 Y34.461 E13.34526
G1 X69.084 Y33.869 E13.36779
G1 X69.469 Y33.306 E13.39047
G1 X69.905 Y32.781 E13.41317
G1 X70.388 Y32.299 E13.43587
G1 X70.923 Y31.854 E13.45901
G1 X71.477 Y31.475 E13.48134
G1 X72.077 Y31.142 E13.50416
G1 X72.705 Y30.863 E13.52702
G1 X73.351 Y30.647 E13.54967
G1 X74.02 Y30.49 E13.57253
G1 X74.683 Y30.397 E13.5948
G1 X75.376 Y30.365 E13.61787
G1 X76.068 Y30.397 E13.64091
