;FLAVOR:Marlin
;TIME:2029
;Filament used: 0.841131m
;Layer height: 0.2
;MINX:57.683
;MINY:29.486
;MINZ:0.2
;MAXX:95.645
;MAXY:67.449
;MAXZ:50
;Generated with Cura_SteamEngine 4.4.1
M140 S60
M105
M190 S60
M104 S205
M105
M109 S205
M82 ;absolute extrusion mode
M201 X500.00 Y500.00 Z100.00 E5000.00 ;Setup machine max acceleration
M203 X500.00 Y500.00 Z10.00 E50.00 ;Setup machine max feedrate
M204 P500.00 R1000.00 T500.00 ;Setup Print/Retract/Travel acceleration
M205 X8.00 Y8.00 Z0.40 E5.00 ;Setup Jerk
M220 S100 ;Reset Feedrate
M221 S100 ;Reset Flowrate

G28 ;Home

G92 E0 ;Reset Extruder
G1 Z2.0 F3000 ;Move Z Axis up
G1 X10.1 Y20 Z0.28 F5000.0 ;Move to start position
G1 X10.1 Y200.0 Z0.28 F1500.0 E15 ;Draw the first line
G1 X10.4 Y200.0 Z0.28 F5000.0 ;Move to side a little
G1 X10.4 Y20 Z0.28 F1500.0 E30 ;Draw the second line
G92 E0 ;Reset Extruder
G1 Z2.0 F3000 ;Move Z Axis up

G92 E0
G92 E0
G1 F1500 E-6
;LAYER_COUNT:250
;LAYER:0
M107
M204 S500
M205 X20 Y20
G0 F6000 X60.517 Y38.488 Z0.2
;TYPE:SKIRT
G1 F1500 E0
G1 X60.894 Y37.902 E0.02318
G1 X61.491 Y37.064 E0.0574
G1 X61.972 Y36.451 E0.08331
G1 X62.639 Y35.678 E0.11727
G1 X63.138 Y35.151 E0.14141
G1 X63.86 Y34.455 E0.17476
G1 X64.4 Y33.98 E0.19869
G1 X65.186 Y33.349 E0.23221
G1 X65.798 Y32.903 E0.2574
G1 X66.683 Y32.321 E0.29263
G1 X67.318 Y31.946 E0.31715
G1 X68.161 Y31.497 E0.34892
G1 X68.777 Y31.202 E0.37164
G1 X69.701 Y30.81 E0.40502
G1 X70.434 Y30.538 E0.43103
G1 X71.459 Y30.214 E0.46678
G1 X72.207 Y30.017 E0.49251
G1 X73.208 Y29.802 E0.52656
G1 X73.901 Y29.687 E0.54992
G1 X74.904 Y29.568 E0.58352
G1 X75.66 Y29.513 E0.60873
G1 X76.657 Y29.486 E0.6419
G1 X77.374 Y29.499 E0.66575
G1 X78.388 Y29.564 E0.69955
G1 X79.118 Y29.645 E0.72398
G1 X80.12 Y29.803 E0.75772
G1 X80.869 Y29.957 E0.78315
G1 X81.881 Y30.216 E0.81789
G1 X82.575 Y30.429 E0.84204
G1 X83.533 Y30.772 E0.87588
G1 X84.221 Y31.055 E0.90063
G1 X85.108 Y31.467 E0.93315
G1 X85.72 Y31.785 E0.95609
G1 X86.584 Y32.285 E0.98929
G1 X87.244 Y32.708 E1.01537
G1 X88.101 Y33.317 E1.05034
G1 X88.65 Y33.748 E1.07355
G1 X89.396 Y34.39 E1.10629
G1 X89.957 Y34.918 E1.13191
G1 X90.677 Y35.663 E1.16637
G1 X91.152 Y36.203 E1.19029
G1 X91.809 Y37.026 E1.22531
G1 X92.27 Y37.664 E1.25149
G1 X92.797 Y38.464 E1.28336
G1 X93.131 Y39.023 E1.30502
G1 X93.619 Y39.936 E1.33945
G1 X93.979 Y40.692 E1.3673
G1 X94.392 Y41.679 E1.40288
G1 X94.625 Y42.323 E1.42566
G1 X94.916 Y43.256 E1.45817
G1 X95.103 Y43.964 E1.48252
G1 X95.312 Y44.928 E1.51533
G1 X95.434 Y45.645 E1.53952
G1 X95.556 Y46.631 E1.57257
G1 X95.613 Y47.359 E1.59685
G1 X95.645 Y48.425 E1.63232
G1 X95.63 Y49.221 E1.6588
G1 X95.561 Y50.259 E1.6934
G1 X95.483 Y50.944 E1.71633
G1 X95.33 Y51.906 E1.74873
G1 X95.175 Y52.663 E1.77443
G1 X94.912 Y53.692 E1.80976
G1 X94.695 Y54.397 E1.83429
G1 X94.361 Y55.332 E1.86732
G1 X94.093 Y55.986 E1.89082
G1 X93.678 Y56.881 E1.92364
G1 X93.333 Y57.546 E1.94855
G1 X92.827 Y58.421 E1.98217
G1 X92.449 Y59.01 E2.00545
G1 X91.87 Y59.827 E2.03875
G1 X91.395 Y60.437 E2.06447
G1 X90.686 Y61.261 E2.10062
G1 X90.139 Y61.836 E2.12702
G1 X89.416 Y62.529 E2.16033
G1 X88.941 Y62.945 E2.18133
G1 X88.201 Y63.539 E2.21289
G1 X87.559 Y64.01 E2.23937
G1 X86.646 Y64.613 E2.27577
G1 X86.011 Y64.988 E2.30029
G1 X85.168 Y65.437 E2.33206
G1 X84.552 Y65.732 E2.35478
G1 X83.628 Y66.124 E2.38816
G1 X82.895 Y66.396 E2.41417
G1 X81.891 Y66.715 E2.4492
G1 X81.183 Y66.903 E2.47357
G1 X80.203 Y67.116 E2.50692
G1 X79.485 Y67.238 E2.53115
G1 X78.467 Y67.362 E2.56526
G1 X77.696 Y67.42 E2.59097
G1 X76.655 Y67.449 E2.62561
G1 X75.943 Y67.435 E2.6493
G1 X74.954 Y67.371 E2.68226
G1 X74.21 Y67.289 E2.70715
G1 X73.212 Y67.132 E2.74076
G1 X72.527 Y66.992 E2.76401
G1 X71.536 Y66.741 E2.79801
G1 X70.755 Y66.504 E2.82516
G1 X69.736 Y66.139 E2.86116
G1 X69.08 Y65.867 E2.88478
G1 X68.221 Y65.467 E2.91629
G1 X67.609 Y65.149 E2.93923
G1 X66.745 Y64.649 E2.97243
G1 X66.085 Y64.226 E2.99851
G1 X65.222 Y63.612 E3.03373
G1 X64.665 Y63.174 E3.0573
G1 X63.932 Y62.543 E3.08947
G1 X63.402 Y62.045 E3.11366
G1 X62.675 Y61.295 E3.1484
G1 X62.148 Y60.696 E3.17494
G1 X61.498 Y59.882 E3.20958
G1 X61.091 Y59.32 E3.23266
G1 X60.543 Y58.486 E3.26585
G1 X60.164 Y57.848 E3.29054
G1 X59.68 Y56.94 E3.32476
G1 X59.345 Y56.233 E3.35078
G1 X58.949 Y55.285 E3.38495
G1 X58.711 Y54.631 E3.4081
G1 X58.413 Y53.678 E3.44131
G1 X58.226 Y52.97 E3.46566
G1 X58.017 Y52.006 E3.49847
G1 X57.895 Y51.289 E3.52266
G1 X57.77 Y50.269 E3.55684
G1 X57.712 Y49.498 E3.58256
G1 X57.683 Y48.458 E3.61716
G1 X57.697 Y47.743 E3.64095
G1 X57.762 Y46.747 E3.67414
G1 X57.843 Y46.016 E3.69861
G1 X58.001 Y45.012 E3.73241
G1 X58.155 Y44.263 E3.75784
G1 X58.417 Y43.242 E3.7929
G1 X58.634 Y42.537 E3.81744
G1 X58.968 Y41.604 E3.8504
G1 X59.242 Y40.935 E3.87444
G1 X59.672 Y40.009 E3.9084
G1 X60.019 Y39.345 E3.93332
G1 X60.115 Y39.179 E3.9397
G0 F1350 X60.517 Y38.488
G0 F6000 X60.853 Y38.705
G1 F1500 X61.23 Y38.119 E3.96287
G1 X61.806 Y37.311 E3.99587
G1 X62.287 Y36.698 E4.02179
G1 X62.929 Y35.953 E4.0545
G1 X63.428 Y35.426 E4.07864
G1 X64.124 Y34.755 E4.11079
G1 X64.664 Y34.28 E4.13471
G1 X65.422 Y33.672 E4.16703
G1 X66.034 Y33.226 E4.19222
G1 X66.887 Y32.666 E4.22616
G1 X67.522 Y32.291 E4.25069
G1 X68.334 Y31.858 E4.28129
G1 X68.95 Y31.563 E4.30401
G1 X69.84 Y31.185 E4.33617
G1 X70.573 Y30.913 E4.36218
G1 X71.561 Y30.601 E4.39664
G1 X72.309 Y30.404 E4.42236
G1 X73.274 Y30.197 E4.45519
G1 X73.967 Y30.082 E4.47855
G1 X74.933 Y29.967 E4.51091
G1 X75.689 Y29.912 E4.53612
G1 X76.65 Y29.886 E4.5681
G1 X77.367 Y29.899 E4.59195
G1 X78.344 Y29.962 E4.62451
G1 X79.074 Y30.043 E4.64894
G1 X80.04 Y30.195 E4.68146
G1 X80.789 Y30.349 E4.7069
G1 X81.764 Y30.599 E4.74037
G1 X82.458 Y30.812 E4.76452
G1 X83.38 Y31.142 E4.79709
G1 X84.068 Y31.425 E4.82183
G1 X84.923 Y31.822 E4.85319
G1 X85.535 Y32.14 E4.87613
G1 X86.368 Y32.622 E4.90814
G1 X87.028 Y33.045 E4.93421
G1 X87.854 Y33.631 E4.96789
G1 X88.403 Y34.062 E4.99111
G1 X89.122 Y34.681 E5.02266
G1 X89.683 Y35.209 E5.04829
G1 X90.377 Y35.927 E5.0815
G1 X90.852 Y36.467 E5.10542
G1 X91.485 Y37.26 E5.13917
G1 X91.946 Y37.898 E5.16535
G1 X92.453 Y38.669 E5.19604
G1 X92.787 Y39.228 E5.2177
G1 X93.258 Y40.108 E5.25089
G1 X93.618 Y40.864 E5.27874
G1 X94.016 Y41.815 E5.31303
G1 X94.249 Y42.459 E5.33581
G1 X94.53 Y43.358 E5.36714
G1 X94.717 Y44.066 E5.39149
G1 X94.918 Y44.995 E5.42311
G1 X95.04 Y45.712 E5.4473
G1 X95.158 Y46.663 E5.47917
G1 X95.215 Y47.391 E5.50346
G1 X95.245 Y48.418 E5.53763
G1 X95.23 Y49.214 E5.56411
G1 X95.164 Y50.213 E5.59741
G1 X95.086 Y50.898 E5.62034
G1 X94.939 Y51.825 E5.65156
G1 X94.784 Y52.582 E5.67726
G1 X94.53 Y53.574 E5.71132
G1 X94.313 Y54.279 E5.73585
G1 X93.99 Y55.18 E5.76769
G1 X93.722 Y55.834 E5.79119
G1 X93.323 Y56.696 E5.82279
G1 X92.978 Y57.361 E5.8477
G1 X92.49 Y58.205 E5.88013
G1 X92.112 Y58.794 E5.90341
G1 X91.554 Y59.582 E5.93552
G1 X91.079 Y60.192 E5.96124
G1 X90.396 Y60.985 E5.99605
G1 X89.849 Y61.56 E6.02244
G1 X89.153 Y62.228 E6.05453
G1 X88.678 Y62.644 E6.07553
G1 X87.964 Y63.217 E6.10598
G1 X87.322 Y63.688 E6.13246
G1 X86.442 Y64.268 E6.16752
G1 X85.807 Y64.643 E6.19204
G1 X84.995 Y65.076 E6.22265
G1 X84.379 Y65.371 E6.24537
G1 X83.489 Y65.749 E6.27753
G1 X82.756 Y66.021 E6.30353
G1 X81.788 Y66.328 E6.33731
G1 X81.08 Y66.516 E6.36167
G1 X80.136 Y66.721 E6.3938
G1 X79.418 Y66.843 E6.41802
G1 X78.437 Y66.963 E6.4509
G1 X77.666 Y67.021 E6.47661
G1 X76.663 Y67.049 E6.50999
G1 X75.951 Y67.035 E6.53367
G1 X74.998 Y66.973 E6.56544
G1 X74.254 Y66.891 E6.59033
G1 X73.292 Y66.74 E6.62272
G1 X72.607 Y66.6 E6.64597
G1 X71.652 Y66.358 E6.67874
G1 X70.871 Y66.121 E6.70589
G1 X69.889 Y65.77 E6.74057
G1 X69.233 Y65.498 E6.76419
G1 X68.406 Y65.112 E6.79455
G1 X67.794 Y64.794 E6.81748
G1 X66.961 Y64.312 E6.84949
G1 X66.301 Y63.889 E6.87557
G1 X65.469 Y63.297 E6.90953
G1 X64.912 Y62.859 E6.9331
G1 X64.206 Y62.252 E6.96407
G1 X63.676 Y61.754 E6.98825
G1 X62.976 Y61.031 E7.02172
G1 X62.449 Y60.432 E7.04826
G1 X61.822 Y59.647 E7.08168
G1 X61.415 Y59.085 E7.10476
G1 X60.887 Y58.282 E7.13672
G1 X60.508 Y57.644 E7.1614
G1 X60.042 Y56.769 E7.19437
G1 X59.707 Y56.062 E7.22039
G1 X59.325 Y55.148 E7.25334
G1 X59.087 Y54.494 E7.27649
G1 X58.799 Y53.576 E7.30849
G1 X58.612 Y52.868 E7.33285
G1 X58.411 Y51.939 E7.36446
G1 X58.289 Y51.222 E7.38865
G1 X58.169 Y50.239 E7.42159
G1 X58.111 Y49.468 E7.4473
G1 X58.083 Y48.465 E7.48068
G1 X58.097 Y47.75 E7.50446
G1 X58.159 Y46.791 E7.53643
G1 X58.24 Y46.06 E7.56089
G1 X58.393 Y45.092 E7.59348
G1 X58.547 Y44.343 E7.61892
G1 X58.799 Y43.36 E7.65267
G1 X59.016 Y42.655 E7.6772
G1 X59.338 Y41.755 E7.70899
G1 X59.612 Y41.086 E7.73304
G1 X60.026 Y40.195 E7.76572
G1 X60.373 Y39.531 E7.79064
G1 X60.451 Y39.396 E7.79582
G0 F1350 X60.853 Y38.705
G0 F6000 X61.19 Y38.921
G1 F1500 X61.567 Y38.335 E7.819
G1 X62.12 Y37.557 E7.85074
G1 X62.601 Y36.944 E7.87666
G1 X63.219 Y36.228 E7.90812
G1 X63.718 Y35.701 E7.93226
G1 X64.388 Y35.055 E7.96321
G1 X64.928 Y34.58 E7.98713
G1 X65.658 Y33.996 E8.01823
G1 X66.27 Y33.55 E8.04341
G1 X67.09 Y33.01 E8.07607
G1 X67.725 Y32.635 E8.1006
G1 X68.506 Y32.219 E8.13003
G1 X69.122 Y31.924 E8.15274
G1 X69.979 Y31.56 E8.18371
G1 X70.712 Y31.288 E8.20972
G1 X71.663 Y30.987 E8.24289
G1 X72.411 Y30.79 E8.26862
G1 X73.339 Y30.592 E8.30018
G1 X74.032 Y30.477 E8.32355
G1 X74.962 Y30.366 E8.3547
G1 X75.718 Y30.311 E8.37991
G1 X76.643 Y30.286 E8.41068
G1 X77.36 Y30.299 E8.43454
G1 X78.3 Y30.359 E8.46586
G1 X79.03 Y30.44 E8.49029
G1 X79.959 Y30.587 E8.52158
G1 X80.708 Y30.741 E8.54701
G1 X81.647 Y30.981 E8.57924
G1 X82.341 Y31.194 E8.60339
G1 X83.228 Y31.512 E8.63473
G1 X83.916 Y31.795 E8.65947
G1 X84.739 Y32.177 E8.68965
G1 X85.351 Y32.495 E8.71259
G1 X86.152 Y32.958 E8.74336
G1 X86.812 Y33.381 E8.76944
G1 X87.607 Y33.946 E8.80187
G1 X88.156 Y34.377 E8.82509
G1 X88.848 Y34.972 E8.85544
G1 X89.409 Y35.5 E8.88107
G1 X90.077 Y36.191 E8.91303
G1 X90.552 Y36.731 E8.93695
G1 X91.161 Y37.494 E8.96942
G1 X91.622 Y38.132 E8.9956
G1 X92.11 Y38.874 E9.02514
G1 X92.444 Y39.433 E9.0468
G1 X92.897 Y40.28 E9.07875
G1 X93.257 Y41.036 E9.1066
G1 X93.64 Y41.951 E9.13959
G1 X93.873 Y42.595 E9.16237
G1 X94.143 Y43.46 E9.19251
G1 X94.33 Y44.168 E9.21686
G1 X94.523 Y45.062 E9.24728
G1 X94.645 Y45.779 E9.27147
G1 X94.759 Y46.694 E9.30214
G1 X94.816 Y47.422 E9.32643
G1 X94.845 Y48.41 E9.3593
G1 X94.83 Y49.206 E9.38578
G1 X94.767 Y50.168 E9.41785
G1 X94.689 Y50.853 E9.44078
G1 X94.547 Y51.745 E9.47082
G1 X94.392 Y52.502 E9.49652
G1 X94.148 Y53.457 E9.5293
G1 X93.931 Y54.162 E9.55384
G1 X93.62 Y55.029 E9.58447
G1 X93.352 Y55.683 E9.60798
G1 X92.968 Y56.512 E9.63837
G1 X92.623 Y57.177 E9.66328
G1 X92.153 Y57.989 E9.69449
G1 X91.775 Y58.578 E9.71777
G1 X91.239 Y59.336 E9.74864
G1 X90.764 Y59.946 E9.77436
G1 X90.106 Y60.709 E9.80787
G1 X89.559 Y61.284 E9.83427
G1 X88.889 Y61.927 E9.86515
G1 X88.414 Y62.343 E9.88615
G1 X87.728 Y62.894 E9.91542
G1 X87.086 Y63.365 E9.9419
G1 X86.239 Y63.924 E9.97565
G1 X85.604 Y64.299 E10.00018
G1 X84.823 Y64.715 E10.02961
G1 X84.207 Y65.01 E10.05233
G1 X83.35 Y65.374 E10.0833
G1 X82.617 Y65.646 E10.1093
G1 X81.686 Y65.941 E10.14179
G1 X80.978 Y66.129 E10.16615
G1 X80.069 Y66.327 E10.19709
G1 X79.351 Y66.449 E10.22132
G1 X78.407 Y66.564 E10.25295
G1 X77.636 Y66.622 E10.27866
G1 X76.67 Y66.649 E10.3108
G1 X75.958 Y66.635 E10.33449
G1 X75.042 Y66.576 E10.36502
G1 X74.298 Y66.494 E10.38991
G1 X73.373 Y66.348 E10.42106
G1 X72.688 Y66.208 E10.44431
G1 X71.768 Y65.975 E10.47588
G1 X70.987 Y65.738 E10.50303
G1 X70.042 Y65.4 E10.53641
G1 X69.386 Y65.128 E10.56003
G1 X68.59 Y64.757 E10.58924
G1 X67.978 Y64.439 E10.61217
G1 X67.177 Y63.976 E10.64295
G1 X66.517 Y63.553 E10.66902
G1 X65.716 Y62.983 E10.70172
G1 X65.159 Y62.545 E10.72529
G1 X64.479 Y61.96 E10.75512
G1 X63.949 Y61.462 E10.77931
G1 X63.276 Y60.767 E10.81149
G1 X62.749 Y60.168 E10.83802
G1 X62.146 Y59.413 E10.87016
G1 X61.739 Y58.851 E10.89324
G1 X61.231 Y58.077 E10.92403
G1 X60.852 Y57.439 E10.94871
G1 X60.403 Y56.598 E10.98042
G1 X60.068 Y55.891 E11.00644
G1 X59.701 Y55.011 E11.03816
G1 X59.463 Y54.357 E11.0613
G1 X59.186 Y53.474 E11.09208
G1 X58.999 Y52.766 E11.11644
G1 X58.806 Y51.872 E11.14686
G1 X58.684 Y51.155 E11.17105
G1 X58.568 Y50.209 E11.20275
G1 X58.51 Y49.438 E11.22846
G1 X58.483 Y48.473 E11.26057
G1 X58.497 Y47.758 E11.28436
G1 X58.557 Y46.835 E11.31512
G1 X58.638 Y46.104 E11.33958
G1 X58.785 Y45.173 E11.37093
G1 X58.939 Y44.424 E11.39637
G1 X59.181 Y43.477 E11.42888
G1 X59.398 Y42.772 E11.45341
G1 X59.708 Y41.907 E11.48397
G1 X59.982 Y41.238 E11.50802
G1 X60.381 Y40.38 E11.53949
G1 X60.728 Y39.716 E11.56441
G1 X60.788 Y39.613 E11.56837
G0 F1350 X61.19 Y38.921
G1 F1500 E5.56837
;MESH:spool v11.stl
G0 F6000 X72.458 Y54.061
;TYPE:WALL-INNER
G1 F1500 E11.56837
G1 F1080 X71.945 Y53.634 E11.59057
G1 X71.492 Y53.182 E11.61186
G1 X71.074 Y52.679 E11.63361
G1 X70.715 Y52.154 E11.65476
G1 X70.403 Y51.592 E11.67614
G1 X70.135 Y50.988 E11.69812
G1 X69.932 Y50.38 E11.71944
G1 X69.784 Y49.748 E11.74103
G1 X69.697 Y49.129 E11.76182
G1 X69.667 Y48.467 E11.78386
G1 X69.697 Y47.805 E11.8059
G1 X69.784 Y47.186 E11.82669
G1 X69.932 Y46.554 E11.84828
G1 X70.137 Y45.941 E11.86978
G1 X70.403 Y45.342 E11.89158
G1 X70.715 Y44.781 E11.91293
G1 X71.07 Y44.261 E11.93387
G1 X71.502 Y43.742 E11.95633
G1 X71.939 Y43.305 E11.97688
G1 X72.458 Y42.873 E11.99934
G1 X72.975 Y42.52 E12.02016
G1 X73.544 Y42.204 E12.04181
G1 X74.144 Y41.937 E12.06365
G1 X74.751 Y41.734 E12.08494
G1 X75.378 Y41.587 E12.10636
G1 X76.004 Y41.499 E12.12739
G1 X76.665 Y41.469 E12.1494
G1 X77.326 Y41.499 E12.1714
G1 X77.948 Y41.586 E12.19229
G1 X78.58 Y41.735 E12.21389
G1 X79.185 Y41.937 E12.2351
G1 X79.785 Y42.204 E12.25695
G1 X80.354 Y42.52 E12.27859
G1 X80.871 Y42.873 E12.29941
G1 X81.39 Y43.305 E12.32187
G1 X81.827 Y43.742 E12.34243
G1 X82.259 Y44.261 E12.36489
G1 X82.614 Y44.781 E12.38583
G1 X82.926 Y45.342 E12.40718
G1 X83.192 Y45.941 E12.42898
G1 X83.397 Y46.554 E12.45048
G1 X83.545 Y47.186 E12.47207
G1 X83.632 Y47.805 E12.49286
G1 X83.663 Y48.467 E12.5149
G1 X83.632 Y49.129 E12.53694
G1 X83.545 Y49.748 E12.55773
G1 X83.397 Y50.38 E12.57932
G1 X83.194 Y50.988 E12.60064
G1 X82.926 Y51.592 E12.62262
G1 X82.614 Y52.154 E12.644
G1 X82.255 Y52.679 E12.66515
G1 X81.837 Y53.182 E12.6869
G1 X81.384 Y53.634 E12.70819
G1 X80.871 Y54.061 E12.73039
G1 X80.354 Y54.414 E12.75121
G1 X79.785 Y54.73 E12.77286
G1 X79.185 Y54.997 E12.7947
G1 X78.58 Y55.199 E12.81591
G1 X77.948 Y55.348 E12.83751
G1 X77.326 Y55.435 E12.8584
G1 X76.665 Y55.465 E12.88041
G1 X76.004 Y55.435 E12.90242
G1 X75.378 Y55.347 E12.92344
G1 X74.751 Y55.2 E12.94486
G1 X74.144 Y54.997 E12.96615
G1 X73.544 Y54.73 E12.98799
G1 X73.127 Y54.498 E13.00386
G0 F972 X72.975 Y54.414
G0 X72.458 Y54.061
G0 F6000 X72.212 Y54.377
G1 F1080 X71.677 Y53.932 E13.02701
G1 X71.194 Y53.45 E13.0497
G1 X70.758 Y52.925 E13.0724
G1 X70.376 Y52.366 E13.09492
G1 X70.042 Y51.766 E13.11776
G1 X69.764 Y51.138 E13.1406
G1 X69.548 Y50.491 E13.16329
G1 X69.39 Y49.818 E13.18628
G1 X69.298 Y49.159 E13.20841
G1 X69.266 Y48.467 E13.23145
G1 X69.298 Y47.775 E13.25449
G1 X69.39 Y47.116 E13.27663
G1 X69.548 Y46.443 E13.29962
G1 X69.766 Y45.791 E13.32248
G1 X70.044 Y45.164 E13.3453
G1 X70.373 Y44.572 E13.36782
G1 X70.754 Y44.015 E13.39027
G1 X71.204 Y43.474 E13.41367
G1 X71.671 Y43.007 E13.43564
G1 X72.212 Y42.557 E13.45904
G1 X72.766 Y42.178 E13.48137
G1 X73.366 Y41.845 E13.50419
G1 X73.994 Y41.566 E13.52705
G1 X74.64 Y41.35 E13.5497
G1 X75.309 Y41.193 E13.57256
G1 X75.972 Y41.1 E13.59483
G1 X76.665 Y41.068 E13.6179
G1 X77.357 Y41.1 E13.64094
