;FLAVOR:Marlin
;TIME:4897
;Filament used: 1.53075m
;Layer height: 0.2
;MINX:25.629
;MINY:30.343
;MINZ:0.2
;MAXX:94.866
;MAXY:64.927
;MAXZ:75
;Generated with Cura_SteamEngine 4.4.1
M140 S60
M105
M190 S60
M104 S205
M105
M109 S205
M82 ;absolute extrusion mode
M201 X500.00 Y500.00 Z100.00 E5000.00 ;Setup machine max acceleration
M203 X500.00 Y500.00 Z10.00 E50.00 ;Setup machine max feedrate
M204 P500.00 R1000.00 T500.00 ;Setup Print/Retract/Travel acceleration
M205 X8.00 Y8.00 Z0.40 E5.00 ;Setup Jerk
M220 S100 ;Reset Feedrate
M221 S100 ;Reset Flowrate

G28 ;Home

G92 E0 ;Reset Extruder
G1 Z2.0 F3000 ;Move Z Axis up
G1 X10.1 Y20 Z0.28 F5000.0 ;Move to start position
G1 X10.1 Y200.0 Z0.28 F1500.0 E15 ;Draw the first line
G1 X10.4 Y200.0 Z0.28 F5000.0 ;Move to side a little
G1 X10.4 Y20 Z0.28 F1500.0 E30 ;Draw the second line
G92 E0 ;Reset Extruder
G1 Z2.0 F3000 ;Move Z Axis up

G92 E0
G92 E0
G1 F1500 E-6
;LAYER_COUNT:375
;LAYER:0
M107
M204 S500
M205 X20 Y20
G0 F6000 X30.944 Y34.989 Z0.2
;TYPE:SKIRT
G1 F1500 E0
G1 X31.667 Y34.348 E0.03214
G1 X32.173 Y33.937 E0.05382
G1 X33.146 Y33.231 E0.0938
G1 X33.667 Y32.895 E0.11442
G1 X34.661 Y32.325 E0.15253
G1 X35.222 Y32.041 E0.17345
G1 X36.247 Y31.586 E0.21075
G1 X36.82 Y31.366 E0.23116
G1 X37.9 Y31.014 E0.26894
G1 X38.501 Y30.852 E0.28964
G1 X39.291 Y30.67 E0.31661
G1 X39.489 Y30.632 E0.32331
G1 X40.003 Y30.546 E0.34065
G1 X40.436 Y30.484 E0.3552
G1 X41.099 Y30.41 E0.37738
G1 X41.307 Y30.393 E0.38432
G1 X41.802 Y30.363 E0.40082
G1 X42.213 Y30.348 E0.4145
G1 X42.834 Y30.343 E0.43515
G1 X43.034 Y30.347 E0.44181
G1 X43.529 Y30.368 E0.45829
G1 X43.959 Y30.396 E0.47262
G1 X44.565 Y30.453 E0.49286
G1 X46.657 Y30.706 E0.56295
G1 X49.256 Y30.965 E0.64982
G1 X51.734 Y31.142 E0.73245
G1 X54.267 Y31.251 E0.81677
G1 X56.782 Y31.288 E0.90043
G1 X59.314 Y31.253 E0.98466
G1 X61.812 Y31.149 E1.06781
G1 X64.062 Y30.994 E1.14282
G1 X64.575 Y30.971 E1.1599
G1 X65.031 Y30.961 E1.17507
G1 X66.063 Y30.986 E1.20941
G1 X66.715 Y31.033 E1.23115
G1 X67.772 Y31.161 E1.26656
G1 X68.353 Y31.26 E1.28617
G1 X69.392 Y31.49 E1.32156
G1 X69.881 Y31.623 E1.33841
G1 X70.863 Y31.94 E1.37274
G1 X71.515 Y32.185 E1.3959
G1 X72.151 Y32.447 E1.41878
G1 X72.886 Y32.777 E1.44558
G1 X73.089 Y32.87 E1.453
G1 X73.3 Y32.97 E1.46077
G1 X75.585 Y33.973 E1.54377
G1 X77.968 Y34.941 E1.62932
G1 X80.264 Y35.796 E1.71081
G1 X82.659 Y36.614 E1.79498
G1 X85.114 Y37.375 E1.88047
G1 X86.29 Y37.714 E1.92117
G1 X87.513 Y38.146 E1.96432
G1 X87.703 Y38.226 E1.97117
G1 X88.551 Y38.626 E2.00236
G1 X89.362 Y39.098 E2.03357
G1 X90.23 Y39.714 E2.06897
G1 X90.426 Y39.868 E2.07726
G1 X91.138 Y40.479 E2.10846
G1 X91.796 Y41.148 E2.13967
G1 X92.461 Y41.959 E2.17456
G1 X92.614 Y42.165 E2.18309
G1 X93.14 Y42.941 E2.21427
G1 X93.599 Y43.759 E2.24547
G1 X94.083 Y44.862 E2.28553
G1 X94.161 Y45.07 E2.29292
G1 X94.452 Y45.961 E2.32409
G1 X94.667 Y46.874 E2.35529
G1 X94.803 Y47.802 E2.38649
G1 X94.852 Y48.479 E2.40906
G1 X94.866 Y48.819 E2.42038
G1 X94.864 Y49.757 E2.45158
G1 X94.783 Y50.692 E2.48279
G1 X94.622 Y51.616 E2.51399
G1 X94.384 Y52.523 E2.54518
G1 X94.125 Y53.265 E2.57132
G1 X93.991 Y53.609 E2.5836
G1 X93.613 Y54.467 E2.61478
G1 X93.164 Y55.291 E2.64599
G1 X92.647 Y56.073 E2.67717
G1 X92.177 Y56.675 E2.70257
G1 X92.018 Y56.865 E2.71081
G1 X91.386 Y57.558 E2.74201
G1 X90.697 Y58.195 E2.77322
G1 X89.957 Y58.771 E2.80441
G1 X89.1 Y59.322 E2.83829
G1 X88.793 Y59.5 E2.8501
G1 X87.962 Y59.936 E2.88131
G1 X87.097 Y60.299 E2.91251
G1 X86.205 Y60.587 E2.94369
G1 X85.071 Y60.836 E2.9823
G1 X83.887 Y61.032 E3.02222
G1 X83.62 Y61.073 E3.0312
G1 X83.279 Y61.121 E3.04266
G1 X80.762 Y61.547 E3.12756
G1 X78.315 Y62.033 E3.21054
G1 X75.89 Y62.586 E3.29327
G1 X73.447 Y63.215 E3.37717
G1 X69.917 Y64.254 E3.49956
G1 X69.282 Y64.42 E3.52139
G1 X68.67 Y64.561 E3.54228
G1 X67.478 Y64.768 E3.58252
G1 X66.811 Y64.846 E3.60485
G1 X65.765 Y64.918 E3.63972
G1 X65.339 Y64.927 E3.6539
G1 X64.323 Y64.901 E3.6877
G1 X63.539 Y64.845 E3.71384
G1 X62.998 Y64.793 E3.73192
G1 X60.579 Y64.499 E3.81297
G1 X58.104 Y64.268 E3.89564
G1 X55.576 Y64.104 E3.9799
G1 X53.053 Y64.011 E4.06387
G1 X50.531 Y63.99 E4.14776
G1 X48.006 Y64.04 E4.23176
G1 X45.531 Y64.159 E4.31417
G1 X44.678 Y64.224 E4.34262
G1 X44.533 Y64.234 E4.34746
G1 X43.75 Y64.283 E4.37355
G1 X43.474 Y64.296 E4.38274
G1 X43.046 Y64.312 E4.39699
G1 X42.484 Y64.319 E4.41568
G1 X42.265 Y64.316 E4.42297
G1 X41.693 Y64.293 E4.44201
G1 X41.283 Y64.266 E4.45567
G1 X40.654 Y64.207 E4.47668
G1 X40.444 Y64.181 E4.48372
G1 X39.908 Y64.101 E4.50175
G1 X39.489 Y64.028 E4.51589
G1 X38.513 Y63.812 E4.54914
G1 X37.89 Y63.644 E4.5706
G1 X37.127 Y63.408 E4.59717
G1 X36.938 Y63.342 E4.60382
G1 X36.475 Y63.168 E4.62028
G1 X36.108 Y63.021 E4.63342
G1 X35.537 Y62.774 E4.65412
G1 X35.351 Y62.687 E4.66095
G1 X34.894 Y62.46 E4.67792
G1 X34.504 Y62.255 E4.69257
G1 X33.633 Y61.745 E4.72614
G1 X33.103 Y61.401 E4.74716
G1 X32.166 Y60.72 E4.78568
G1 X31.691 Y60.335 E4.80602
G1 X31.083 Y59.804 E4.83287
G1 X30.933 Y59.663 E4.83972
G1 X30.586 Y59.322 E4.8559
G1 X30.289 Y59.017 E4.87006
G1 X29.614 Y58.256 E4.90389
G1 X29.206 Y57.751 E4.92548
G1 X28.529 Y56.817 E4.96385
G1 X28.189 Y56.292 E4.98465
G1 X27.601 Y55.268 E5.02393
G1 X27.321 Y54.713 E5.0446
G1 X26.873 Y53.702 E5.08138
G1 X26.651 Y53.124 E5.10198
G1 X26.295 Y52.027 E5.14034
G1 X26.131 Y51.415 E5.16141
G1 X25.89 Y50.278 E5.20007
G1 X25.794 Y49.668 E5.22061
G1 X25.675 Y48.535 E5.2585
G1 X25.643 Y47.926 E5.27878
G1 X25.629 Y47.193 E5.30316
G1 X25.632 Y46.982 E5.31018
G1 X25.656 Y46.39 E5.32989
G1 X25.686 Y45.95 E5.34456
G1 X25.792 Y45.005 E5.37619
G1 X25.885 Y44.408 E5.39628
G1 X26.13 Y43.251 E5.43562
G1 X26.299 Y42.621 E5.45731
G1 X26.543 Y41.83 E5.48484
G1 X26.61 Y41.639 E5.49158
G1 X26.78 Y41.186 E5.50767
G1 X26.936 Y40.797 E5.52161
G1 X27.357 Y39.874 E5.55535
G1 X27.644 Y39.314 E5.57628
G1 X28.192 Y38.364 E5.61276
G1 X28.531 Y37.839 E5.63354
G1 X29.252 Y36.848 E5.6743
G1 X29.644 Y36.368 E5.69492
G1 X30.098 Y35.847 E5.7179
G1 X30.238 Y35.696 E5.72475
G1 X30.378 Y35.553 E5.7314
G0 F1350 X30.646 Y35.278
G0 X30.944 Y34.989
G0 F6000 X31.222 Y35.277
G1 F1500 X31.919 Y34.658 E5.76241
G1 X32.425 Y34.247 E5.78409
G1 X33.363 Y33.567 E5.82262
G1 X33.884 Y33.231 E5.84324
G1 X34.841 Y32.682 E5.87994
G1 X35.402 Y32.398 E5.90085
G1 X36.391 Y31.959 E5.93684
G1 X36.964 Y31.739 E5.95726
G1 X38.004 Y31.4 E5.99364
G1 X38.605 Y31.238 E6.01434
G1 X39.366 Y31.063 E6.04031
G1 X39.564 Y31.025 E6.04702
G1 X40.06 Y30.942 E6.06375
G1 X40.493 Y30.88 E6.07829
G1 X41.132 Y30.808 E6.09968
G1 X41.34 Y30.791 E6.10662
G1 X41.816 Y30.763 E6.12248
G1 X42.227 Y30.748 E6.13616
G1 X42.826 Y30.743 E6.15608
G1 X43.026 Y30.747 E6.16274
G1 X43.503 Y30.767 E6.17862
G1 X43.933 Y30.795 E6.19295
G1 X44.517 Y30.85 E6.21246
G1 X46.614 Y31.104 E6.28272
G1 X49.225 Y31.364 E6.36999
G1 X51.726 Y31.542 E6.45338
G1 X54.242 Y31.651 E6.53714
G1 X56.783 Y31.688 E6.62166
G1 X59.3 Y31.653 E6.70539
G1 X61.854 Y31.547 E6.79041
G1 X64.089 Y31.393 E6.86492
G1 X64.584 Y31.371 E6.8814
G1 X65.04 Y31.361 E6.89657
G1 X66.034 Y31.385 E6.92964
G1 X66.686 Y31.432 E6.95138
G1 X67.705 Y31.556 E6.98553
G1 X68.286 Y31.655 E7.00513
G1 X69.287 Y31.876 E7.03922
G1 X69.776 Y32.009 E7.05608
G1 X70.723 Y32.314 E7.08917
G1 X71.375 Y32.559 E7.11234
G1 X71.988 Y32.812 E7.13439
G1 X72.723 Y33.142 E7.16119
G1 X72.918 Y33.232 E7.16833
G1 X73.118 Y33.327 E7.1757
G1 X75.453 Y34.352 E7.26051
G1 X77.775 Y35.295 E7.34387
G1 X80.177 Y36.189 E7.42911
G1 X82.527 Y36.991 E7.5117
G1 X84.982 Y37.753 E7.5972
G1 X86.179 Y38.098 E7.63863
G1 X87.357 Y38.515 E7.68019
G1 X87.547 Y38.595 E7.68705
G1 X88.38 Y38.988 E7.71768
G1 X89.174 Y39.453 E7.74829
G1 X89.983 Y40.029 E7.78132
G1 X90.179 Y40.183 E7.78961
G1 X90.877 Y40.783 E7.82022
G1 X91.521 Y41.441 E7.85085
G1 X92.14 Y42.198 E7.88337
G1 X92.293 Y42.404 E7.8919
G1 X92.809 Y43.166 E7.92251
G1 X93.257 Y43.97 E7.95313
G1 X93.708 Y45.002 E7.99058
G1 X93.786 Y45.21 E7.99797
G1 X94.072 Y46.085 E8.02859
G1 X94.28 Y46.982 E8.05922
G1 X94.41 Y47.894 E8.08986
G1 X94.452 Y48.496 E8.10993
G1 X94.466 Y48.836 E8.12125
G1 X94.464 Y49.757 E8.15188
G1 X94.382 Y50.674 E8.1825
G1 X94.221 Y51.58 E8.21311
G1 X93.981 Y52.469 E8.24373
G1 X93.752 Y53.119 E8.26665
G1 X93.618 Y53.463 E8.27893
G1 X93.247 Y54.306 E8.30957
G1 X92.804 Y55.113 E8.34019
G1 X92.293 Y55.879 E8.37081
G1 X91.87 Y56.419 E8.39363
G1 X91.711 Y56.609 E8.40187
G1 X91.09 Y57.288 E8.43247
G1 X90.413 Y57.912 E8.46309
G1 X89.683 Y58.474 E8.49374
G1 X88.899 Y58.976 E8.5247
G1 X88.592 Y59.154 E8.5365
G1 X87.776 Y59.581 E8.56713
G1 X86.926 Y59.935 E8.59776
G1 X86.049 Y60.215 E8.62838
G1 X85.006 Y60.442 E8.66388
G1 X83.822 Y60.638 E8.7038
G1 X83.564 Y60.677 E8.71247
G1 X83.193 Y60.729 E8.72493
G1 X80.722 Y61.147 E8.80829
G1 X78.22 Y61.644 E8.89313
G1 X75.782 Y62.201 E8.97631
G1 X73.345 Y62.828 E9.06
G1 X69.804 Y63.87 E9.18277
G1 X69.192 Y64.03 E9.20381
G1 X68.58 Y64.171 E9.2247
G1 X67.431 Y64.37 E9.26348
G1 X66.764 Y64.448 E9.28582
G1 X65.757 Y64.518 E9.31939
G1 X65.331 Y64.527 E9.33356
G1 X64.352 Y64.502 E9.36614
G1 X63.568 Y64.446 E9.39228
G1 X63.046 Y64.396 E9.40972
G1 X60.628 Y64.103 E9.49073
G1 X58.131 Y63.869 E9.57415
G1 X55.581 Y63.703 E9.65914
G1 X53.071 Y63.611 E9.74268
G1 X50.526 Y63.59 E9.82733
G1 X48.015 Y63.64 E9.91086
G1 X45.479 Y63.762 E9.99531
G1 X44.647 Y63.825 E10.02306
G1 X44.508 Y63.834 E10.02769
G1 X43.725 Y63.883 E10.05378
G1 X43.459 Y63.897 E10.06264
G1 X43.031 Y63.913 E10.07689
G1 X42.49 Y63.919 E10.09488
G1 X42.271 Y63.916 E10.10217
G1 X41.719 Y63.894 E10.12054
G1 X41.309 Y63.867 E10.13421
G1 X40.704 Y63.81 E10.15442
G1 X40.494 Y63.784 E10.16146
G1 X39.977 Y63.707 E10.17884
G1 X39.558 Y63.634 E10.19299
G1 X38.617 Y63.425 E10.22505
G1 X37.994 Y63.257 E10.24651
G1 X37.259 Y63.03 E10.2721
G1 X37.07 Y62.964 E10.27876
G1 X36.624 Y62.797 E10.29459
G1 X36.257 Y62.65 E10.30774
G1 X35.707 Y62.412 E10.32768
G1 X35.521 Y62.325 E10.33451
G1 X35.08 Y62.106 E10.35088
G1 X34.69 Y61.901 E10.36554
G1 X33.851 Y61.409 E10.39789
G1 X33.321 Y61.065 E10.4189
G1 X32.418 Y60.409 E10.45602
G1 X31.943 Y60.024 E10.47636
G1 X31.357 Y59.512 E10.50224
G1 X31.207 Y59.371 E10.50909
G1 X30.873 Y59.043 E10.52466
G1 X30.576 Y58.738 E10.53882
G1 X29.925 Y58.005 E10.57143
G1 X29.517 Y57.5 E10.59302
G1 X28.865 Y56.6 E10.62998
G1 X28.525 Y56.075 E10.65079
G1 X27.958 Y55.088 E10.68865
G1 X27.678 Y54.533 E10.70932
G1 X27.247 Y53.559 E10.74475
G1 X27.025 Y52.981 E10.76534
G1 X26.681 Y51.924 E10.80231
G1 X26.517 Y51.312 E10.82338
G1 X26.285 Y50.216 E10.86065
G1 X26.189 Y49.606 E10.88118
G1 X26.075 Y48.514 E10.9177
G1 X26.043 Y47.905 E10.93798
G1 X26.029 Y47.198 E10.9615
G1 X26.032 Y46.987 E10.96852
G1 X26.056 Y46.417 E10.9875
G1 X26.086 Y45.977 E11.00217
G1 X26.187 Y45.066 E11.03265
G1 X26.28 Y44.469 E11.05275
G1 X26.516 Y43.355 E11.09062
G1 X26.685 Y42.725 E11.11232
G1 X26.921 Y41.962 E11.13888
G1 X26.988 Y41.771 E11.14561
G1 X27.152 Y41.335 E11.16111
G1 X27.308 Y40.946 E11.17505
G1 X27.713 Y40.056 E11.20757
G1 X28 Y39.496 E11.2285
G1 X28.528 Y38.581 E11.26363
G1 X28.867 Y38.056 E11.28442
G1 X29.562 Y37.101 E11.3237
G1 X29.954 Y36.621 E11.34432
G1 X30.391 Y36.119 E11.36645
G1 X30.531 Y35.968 E11.3733
G1 X30.655 Y35.841 E11.3792
G0 F1350 X30.924 Y35.566
G0 X31.222 Y35.277
G0 F6000 X31.501 Y35.564
G1 F1500 X32.171 Y34.969 E11.40901
G1 X32.677 Y34.558 E11.43069
G1 X33.58 Y33.903 E11.46779
G1 X34.101 Y33.567 E11.48841
G1 X35.022 Y33.039 E11.52372
G1 X35.583 Y32.755 E11.54463
G1 X36.534 Y32.333 E11.57924
G1 X37.107 Y32.113 E11.59965
G1 X38.108 Y31.787 E11.63467
G1 X38.709 Y31.625 E11.65537
G1 X39.442 Y31.456 E11.68039
G1 X39.64 Y31.418 E11.6871
G1 X40.116 Y31.338 E11.70315
G1 X40.549 Y31.276 E11.7177
G1 X41.164 Y31.207 E11.73828
G1 X41.372 Y31.19 E11.74522
G1 X41.831 Y31.163 E11.76052
G1 X42.242 Y31.148 E11.7742
G1 X42.818 Y31.143 E11.79335
G1 X43.018 Y31.147 E11.80001
G1 X43.477 Y31.167 E11.81529
G1 X43.907 Y31.195 E11.82962
G1 X44.469 Y31.247 E11.84839
G1 X46.575 Y31.502 E11.91895
G1 X49.192 Y31.763 E12.00642
G1 X51.679 Y31.94 E12.08935
G1 X54.255 Y32.051 E12.17511
G1 X56.782 Y32.088 E12.25917
G1 X59.323 Y32.053 E12.34369
G1 X61.862 Y31.947 E12.42821
G1 X64.117 Y31.792 E12.50339
G1 X64.592 Y31.77 E12.5192
G1 X65.048 Y31.76 E12.53437
G1 X66.005 Y31.784 E12.56621
G1 X66.657 Y31.831 E12.58795
G1 X67.637 Y31.95 E12.62079
G1 X68.218 Y32.049 E12.64039
G1 X69.182 Y32.262 E12.67323
G1 X69.671 Y32.395 E12.69008
G1 X70.582 Y32.689 E12.72192
G1 X71.234 Y32.934 E12.74509
G1 X71.824 Y33.177 E12.76631
G1 X72.559 Y33.507 E12.79311
G1 X72.746 Y33.593 E12.79995
G1 X72.951 Y33.69 E12.8075
G1 X75.278 Y34.712 E12.89203
G1 X77.662 Y35.68 E12.97761
G1 X80.012 Y36.555 E13.06101
G1 X82.427 Y37.379 E13.14588
G1 X84.894 Y38.145 E13.2318
G1 X86.068 Y38.483 E13.27243
G1 X87.202 Y38.883 E13.31243
G1 X87.392 Y38.963 E13.31928
G1 X88.208 Y39.35 E13.34932
G1 X88.987 Y39.808 E13.37938
G1 X89.736 Y40.344 E13.41001
G1 X89.932 Y40.498 E13.4183
G1 X90.617 Y41.086 E13.44833
G1 X91.246 Y41.734 E13.47836
G1 X91.819 Y42.436 E13.5085
G1 X91.972 Y42.642 E13.51704
G1 X92.477 Y43.39 E13.54705
G1 X92.915 Y44.18 E13.5771
G1 X93.334 Y45.143 E13.61203
G1 X93.412 Y45.351 E13.61942
G1 X93.691 Y46.209 E13.64943
G1 X93.893 Y47.09 E13.67949
G1 X94.017 Y47.984 E13.70951
G1 X94.052 Y48.512 E13.72711
G1 X94.066 Y48.852 E13.73842
G1 X94.064 Y49.755 E13.76846
G1 X93.981 Y50.655 E13.79852
G1 X93.819 Y51.543 E13.82854
G1 X93.579 Y52.414 E13.85859
G1 X93.379 Y52.974 E13.87837
G1 X93.245 Y53.318 E13.89065
G1 X92.881 Y54.144 E13.92067
G1 X92.444 Y54.935 E13.95073
G1 X91.94 Y55.684 E13.98075
G1 X91.563 Y56.162 E14.001
G1 X91.404 Y56.352 E14.00924
G1 X90.795 Y57.018 E14.03926
G1 X90.128 Y57.628 E14.06932
G1 X89.411 Y58.176 E14.09934
G1 X88.698 Y58.63 E14.12745
G1 X88.391 Y58.808 E14.13925
G1 X87.591 Y59.226 E14.16927
G1 X86.756 Y59.572 E14.19934
G1 X85.895 Y59.842 E14.22935
G1 X84.941 Y60.047 E14.2618
G1 X83.757 Y60.243 E14.30172
G1 X83.509 Y60.281 E14.31006
G1 X83.143 Y60.332 E14.32235
G1 X80.643 Y60.756 E14.40669
G1 X78.124 Y61.256 E14.49211
G1 X75.699 Y61.81 E14.57484
G1 X73.222 Y62.447 E14.65991
G1 X69.691 Y63.486 E14.78233
G1 X69.102 Y63.641 E14.80259
G1 X68.49 Y63.782 E14.82347
G1 X67.385 Y63.973 E14.86077
G1 X66.718 Y64.051 E14.88311
G1 X65.748 Y64.118 E14.91545
G1 X65.322 Y64.127 E14.92962
G1 X64.38 Y64.103 E14.96096
G1 X63.596 Y64.047 E14.9871
G1 X63.094 Y63.999 E15.00388
G1 X60.677 Y63.706 E15.08485
G1 X58.122 Y63.467 E15.1702
G1 X55.621 Y63.304 E15.25356
G1 X53.089 Y63.211 E15.33784
G1 X50.522 Y63.19 E15.42322
G1 X47.986 Y63.24 E15.50758
G1 X45.467 Y63.362 E15.59146
G1 X44.617 Y63.426 E15.61981
G1 X44.483 Y63.435 E15.62428
G1 X43.7 Y63.484 E15.65037
G1 X43.444 Y63.497 E15.6589
G1 X43.016 Y63.513 E15.67314
G1 X42.495 Y63.519 E15.69047
G1 X42.276 Y63.516 E15.69776
G1 X41.746 Y63.495 E15.7154
G1 X41.336 Y63.468 E15.72907
G1 X40.753 Y63.413 E15.74854
G1 X40.543 Y63.387 E15.75558
G1 X40.045 Y63.313 E15.77233
G1 X39.626 Y63.24 E15.78647
G1 X38.721 Y63.039 E15.81731
G1 X38.098 Y62.871 E15.83877
G1 X37.391 Y62.653 E15.86338
G1 X37.202 Y62.587 E15.87003
G1 X36.772 Y62.426 E15.88531
G1 X36.405 Y62.279 E15.89845
G1 X35.876 Y62.049 E15.91764
G1 X35.69 Y61.962 E15.92447
G1 X35.266 Y61.752 E15.94021
G1 X34.876 Y61.547 E15.95486
G1 X34.069 Y61.074 E15.98597
G1 X33.539 Y60.73 E16.00699
G1 X32.669 Y60.098 E16.04275
G1 X32.194 Y59.713 E16.06309
G1 X31.631 Y59.221 E16.08796
G1 X31.481 Y59.08 E16.09481
G1 X31.159 Y58.764 E16.10981
G1 X30.862 Y58.459 E16.12397
G1 X30.236 Y57.753 E16.15535
G1 X29.828 Y57.248 E16.17695
